_examples/_cube_files/LUT1D_ccoSINAM.cube
# Diego Inácio • 2017
TITLE "1D Complex Color Operator: Sinusoid with Amplitude modulation"
LUT_1D_SIZE 128

0.0000 0.0000 0.0000
0.0057 0.0029 0.0006
0.0090 0.0033 0.0001
0.0098 0.0020 0.0003
0.0082 0.0004 0.0030
0.0053 0.0001 0.0095
0.0021 0.0027 0.0203
0.0001 0.0092 0.0347
0.0008 0.0200 0.0508
0.0052 0.0349 0.0664
0.0140 0.0527 0.0785
0.0274 0.0713 0.0848
0.0448 0.0885 0.0836
0.0650 0.1018 0.0747
0.0861 0.1090 0.0593
0.1061 0.1089 0.0402
0.1227 0.1008 0.0212
0.1339 0.0858 0.0065
0.1381 0.0657 0.0001
0.1345 0.0435 0.0047
0.1232 0.0228 0.0215
0.1052 0.0073 0.0495
0.0825 0.0002 0.0856
0.0576 0.0039 0.1249
0.0339 0.0195 0.1616
0.0145 0.0463 0.1898
0.0026 0.0821 0.2047
0.0005 0.1232 0.2033
0.0097 0.1648 0.1853
0.0303 0.2019 0.1531
0.0614 0.2296 0.1119
0.1005 0.2441 0.0686
0.1444 0.2429 0.0310
0.1889 0.2258 0.0064
0.2294 0.1947 0.0005
0.2618 0.1533 0.0159
0.2823 0.1072 0.0521
0.2885 0.0629 0.1049
0.2794 0.0268 0.1671
0.2555 0.0047 0.2295
0.2191 0.0009 0.2826
0.1740 0.0174 0.3178
0.1251 0.0534 0.3289
0.0779 0.1057 0.3136
0.0382 0.1687 0.2739
0.0109 0.2350 0.2157
0.0001 0.2965 0.1484
0.0080 0.3455 0.0833
0.0351 0.3755 0.0317
0.0797 0.3821 0.0034
0.1381 0.3642 0.0045
0.2050 0.3234 0.0367
0.2739 0.2649 0.0967
0.3381 0.1961 0.1764
0.3907 0.1261 0.2643
0.4261 0.0646 0.3470
0.4404 0.0205 0.4114
0.4316 0.0006 0.4471
0.4003 0.0091 0.4479
0.3494 0.0462 0.4131
0.2841 0.1086 0.3477
0.2115 0.1897 0.2619
0.1393 0.2798 0.1696
0.0757 0.3681 0.0862
0.0283 0.4436 0.0261
0.0031 0.4965 0.0004
0.0037 0.5197 0.0151
0.0314 0.5098 0.0695
0.0846 0.4675 0.1568
0.1586 0.3980 0.2645
0.2466 0.3100 0.3763
0.3402 0.2149 0.4751
0.4299 0.1253 0.5451
0.5065 0.0535 0.5748
0.5619 0.0099 0.5589
0.5901 0.0014 0.4995
0.5877 0.0306 0.4054
0.5547 0.0952 0.2917
0.4940 0.1882 0.1767
0.4119 0.2990 0.0796
0.3170 0.4140 0.0171
0.2193 0.5191 0.0008
0.1296 0.6008 0.0351
0.0580 0.6486 0.1164
0.0130 0.6558 0.2334
0.0003 0.6212 0.3688
0.0226 0.5487 0.5018
0.0786 0.4473 0.6116
0.1637 0.3299 0.6807
0.2700 0.2118 0.6976
0.3871 0.1089 0.6591
0.5032 0.0352 0.5708
0.6066 0.0014 0.4463
0.6864 0.0133 0.3055
0.7340 0.0709 0.1712
0.7443 0.1681 0.0659
0.7156 0.2939 0.0077
0.6506 0.4331 0.0075
0.5559 0.5685 0.0673
0.4413 0.6831 0.1792
0.3188 0.7621 0.3271
0.2016 0.7953 0.4886
0.1026 0.7778 0.6387
0.0331 0.7115 0.7536
0.0014 0.6044 0.8150
0.0119 0.4701 0.8126
0.0649 0.3258 0.7461
0.1558 0.1905 0.6256
0.2763 0.0822 0.4700
0.4147 0.0160 0.3043
0.5571 0.0016 0.1555
0.6890 0.0423 0.0482
0.7967 0.1345 0.0012
0.8688 0.2677 0.0236
0.8976 0.4259 0.1138
0.8796 0.5899 0.2591
0.8164 0.7390 0.4378
0.7141 0.8543 0.6227
0.5834 0.9210 0.7847
0.4379 0.9301 0.8982
0.2931 0.8800 0.9449
0.1646 0.7766 0.9167
0.0667 0.6328 0.8176
0.0106 0.4671 0.6629
0.0032 0.3007 0.4770
0.0466 0.1556 0.2898
0.1375 0.0514 0.1319
0.2674 0.0025 0.0296