_examples/_cube_files/LUT1D_identityN4.cube
# Diego Inácio • 2017
TITLE "1D Identity LUT, N = 4"
LUT_1D_SIZE 4

0.0000 0.0000 0.0000
0.3333 0.3333 0.3333
0.6667 0.6667 0.6667
1.0000 1.0000 1.0000