_examples/_cube_files/LUT1D_ccoRANDOM.cube
# Diego Inácio • 2017
TITLE "1D Complex Color Operator: Randomic"
LUT_1D_SIZE 64

0.8289 0.3021 0.5454
0.3035 0.9467 0.3583
0.8748 0.6681 0.0727
0.7441 0.9198 0.9409
0.5849 0.5898 0.0899
0.6398 0.3996 0.1869
0.8236 0.8016 0.3729
0.7830 0.9948 0.6665
0.0576 0.5583 0.8900
0.2442 0.3134 0.2755
0.3031 0.8174 0.9007
0.9694 0.2159 0.3996
0.3212 0.5912 0.1214
0.6578 0.7827 0.3563
0.1611 0.9131 0.7327
0.1650 0.0151 0.6097
0.1634 0.6786 0.9147
0.9694 0.2169 0.4625
0.6607 0.4362 0.9278
0.6795 0.6324 0.5820
0.5659 0.8656 0.5705
0.8881 0.0290 0.4148
0.7888 0.0845 0.0875
0.4093 0.8120 0.7695
0.8348 0.7201 0.8346
0.7383 0.6538 0.6239
0.2178 0.7448 0.6087
0.4323 0.1074 0.7926
0.7958 0.8520 0.0763
0.4325 0.6750 0.0633
0.2677 0.4978 0.6435
0.7770 0.5488 0.0908
0.2240 0.9729 0.7266
0.2896 0.0473 0.8608
0.9494 0.9988 0.0373
0.3834 0.3076 0.6772
0.2262 0.4543 0.5035
0.5403 0.9676 0.6396
0.7147 0.3792 0.1450
0.6815 0.1168 0.3512
0.4073 0.2584 0.7840
0.7226 0.4656 0.0558
0.5484 0.6837 0.9206
0.9544 0.5174 0.6438
0.5994 0.9046 0.0926
0.9970 0.8671 0.0244
0.8121 0.2946 0.7666
0.2029 0.1047 0.2858
0.6468 0.8248 0.3566
0.5629 0.5852 0.0536
0.4793 0.7494 0.8222
0.1308 0.0114 0.4854
0.1993 0.8290 0.2623
0.6892 0.0195 0.5791
0.0746 0.8172 0.5737
0.0009 0.9404 0.6780
0.0137 0.1861 0.1289
0.0911 0.6395 0.4539
0.7135 0.4413 0.2417
0.7316 0.7609 0.5024
0.8770 0.3029 0.6375
0.3252 0.2296 0.8569
0.9402 0.2655 0.1569
0.0210 0.5296 0.0810