_examples/_cube_files/LUT1D_scoCONTRAST.cube
# Diego Inácio • 2017
TITLE "1D Simple Color Operator: Contrast"
LUT_1D_SIZE 64

0.0000 0.0000 0.0000
0.0114 0.0003 0.0035
0.0230 0.0008 0.0075
0.0351 0.0013 0.0118
0.0475 0.0019 0.0166
0.0602 0.0027 0.0220
0.0732 0.0037 0.0279
0.0866 0.0048 0.0344
0.1004 0.0063 0.0416
0.1145 0.0081 0.0494
0.1289 0.0102 0.0581
0.1436 0.0129 0.0676
0.1587 0.0161 0.0780
0.1741 0.0201 0.0894
0.1897 0.0249 0.1018
0.2057 0.0307 0.1153
0.2220 0.0378 0.1299
0.2385 0.0464 0.1457
0.2553 0.0568 0.1626
0.2724 0.0692 0.1809
0.2897 0.0840 0.2004
0.3072 0.1016 0.2211
0.3249 0.1223 0.2431
0.3428 0.1465 0.2663
0.3609 0.1745 0.2907
0.3791 0.2064 0.3161
0.3975 0.2425 0.3426
0.4160 0.2826 0.3699
0.4346 0.3264 0.3980
0.4532 0.3734 0.4267
0.4719 0.4230 0.4558
0.4906 0.4742 0.4852
0.5094 0.5258 0.5148
0.5281 0.5770 0.5442
0.5468 0.6266 0.5733
0.5654 0.6736 0.6020
0.5840 0.7174 0.6301
0.6025 0.7575 0.6574
0.6209 0.7936 0.6839
0.6391 0.8255 0.7093
0.6572 0.8535 0.7337
0.6751 0.8777 0.7569
0.6928 0.8984 0.7789
0.7103 0.9160 0.7996
0.7276 0.9308 0.8191
0.7447 0.9432 0.8374
0.7615 0.9536 0.8543
0.7780 0.9622 0.8701
0.7943 0.9693 0.8847
0.8103 0.9751 0.8982
0.8259 0.9799 0.9106
0.8413 0.9839 0.9220
0.8564 0.9871 0.9324
0.8711 0.9898 0.9419
0.8855 0.9919 0.9506
0.8996 0.9937 0.9584
0.9134 0.9952 0.9656
0.9268 0.9963 0.9721
0.9398 0.9973 0.9780
0.9525 0.9981 0.9834
0.9649 0.9987 0.9882
0.9770 0.9992 0.9925
0.9886 0.9997 0.9965
1.0000 1.0000 1.0000