_examples/_cube_files/LUT1D_identityN16.cube
# Diego Inácio • 2017
TITLE "1D Identity LUT, N = 16"
LUT_1D_SIZE 16

0.0000 0.0000 0.0000
0.0667 0.0667 0.0667
0.1333 0.1333 0.1333
0.2000 0.2000 0.2000
0.2667 0.2667 0.2667
0.3333 0.3333 0.3333
0.4000 0.4000 0.4000
0.4667 0.4667 0.4667
0.5333 0.5333 0.5333
0.6000 0.6000 0.6000
0.6667 0.6667 0.6667
0.7333 0.7333 0.7333
0.8000 0.8000 0.8000
0.8667 0.8667 0.8667
0.9333 0.9333 0.9333
1.0000 1.0000 1.0000