_examples/_cube_files/LUT1D_ccoSIN.cube
# Diego Inácio • 2017
TITLE "1D Complex Color Operator: Sinusoid"
LUT_1D_SIZE 64

0.8491 0.9975 0.9135
0.9000 0.9999 0.8803
0.9415 0.9945 0.8425
0.9723 0.9814 0.8005
0.9920 0.9609 0.7549
0.9998 0.9332 0.7063
0.9958 0.8988 0.6552
0.9800 0.8582 0.6022
0.9526 0.8121 0.5480
0.9145 0.7611 0.4933
0.8666 0.7060 0.4386
0.8098 0.6478 0.3846
0.7457 0.5872 0.3320
0.6757 0.5253 0.2815
0.6016 0.4630 0.2336
0.5250 0.4013 0.1888
0.4478 0.3411 0.1479
0.3718 0.2834 0.1111
0.2990 0.2291 0.0790
0.2309 0.1789 0.0520
0.1692 0.1337 0.0304
0.1154 0.0943 0.0144
0.0708 0.0611 0.0043
0.0364 0.0347 0.0001
0.0131 0.0156 0.0019
0.0014 0.0039 0.0098
0.0016 0.0000 0.0235
0.0137 0.0038 0.0429
0.0373 0.0154 0.0679
0.0720 0.0344 0.0980
0.1169 0.0607 0.1330
0.1710 0.0938 0.1723
0.2329 0.1332 0.2157
0.3012 0.1783 0.2624
0.3742 0.2284 0.3120
0.4502 0.2827 0.3639
0.5274 0.3404 0.4174
0.6039 0.4005 0.4718
0.6780 0.4622 0.5267
0.7478 0.5245 0.5812
0.8117 0.5864 0.6347
0.8682 0.6470 0.6866
0.9159 0.7053 0.7363
0.9537 0.7604 0.7831
0.9806 0.8114 0.8265
0.9961 0.8577 0.8660
0.9998 0.8983 0.9011
0.9915 0.9328 0.9314
0.9715 0.9606 0.9565
0.9403 0.9812 0.9761
0.8986 0.9944 0.9899
0.8474 0.9998 0.9979
0.7878 0.9976 0.9999
0.7215 0.9876 0.9959
0.6498 0.9700 0.9859
0.5746 0.9451 0.9701
0.4976 0.9133 0.9486
0.4206 0.8752 0.9218
0.3455 0.8311 0.8898
0.2742 0.7820 0.8532
0.2082 0.7285 0.8123
0.1491 0.6714 0.7677
0.0985 0.6116 0.7199
0.0574 0.5502 0.6694