_examples/_cube_files/LUT1D_ccoCUMSUM.cube
# Diego Inácio • 2017
TITLE "1D Complex Color Operator: Cumulative random"
LUT_1D_SIZE 32

0.0412 0.0206 0.0110
0.0482 0.0460 0.0343
0.0955 0.0927 0.0864
0.1488 0.1306 0.1246
0.1795 0.1537 0.1705
0.2020 0.1837 0.1768
0.2121 0.2028 0.2070
0.2536 0.2514 0.2113
0.2985 0.2932 0.2436
0.3408 0.3161 0.2655
0.3869 0.3549 0.3029
0.4168 0.3843 0.3613
0.4441 0.4186 0.3640
0.4841 0.4296 0.3988
0.4903 0.4637 0.4543
0.5282 0.4767 0.4955
0.5380 0.4882 0.5535
0.5538 0.5082 0.6045
0.5872 0.5515 0.6115
0.6112 0.5575 0.6287
0.6128 0.6082 0.6815
0.6441 0.6261 0.7068
0.6869 0.6663 0.7480
0.7227 0.7119 0.8091
0.7571 0.7562 0.8709
0.7829 0.8078 0.9013
0.8366 0.8547 0.9085
0.8702 0.8658 0.9193
0.8930 0.8795 0.9746
0.9386 0.9183 0.9962
0.9594 0.9679 0.9964
1.0000 1.0000 1.0000