_examples/_cube_files/LUT3D_scoOFFSET.cube
# Diego Inácio • 2017
TITLE "3D Simple Color Operator: Color Offset"
LUT_3D_SIZE 16
0.3100 0.2300 0.1400
0.3413 0.2300 0.1400
0.3727 0.2300 0.1400
0.4040 0.2300 0.1400
0.4353 0.2300 0.1400
0.4667 0.2300 0.1400
0.4980 0.2300 0.1400
0.5293 0.2300 0.1400
0.5607 0.2300 0.1400
0.5920 0.2300 0.1400
0.6233 0.2300 0.1400
0.6547 0.2300 0.1400
0.6860 0.2300 0.1400
0.7173 0.2300 0.1400
0.7487 0.2300 0.1400
0.7800 0.2300 0.1400
0.3100 0.2667 0.1400
0.3413 0.2667 0.1400
0.3727 0.2667 0.1400
0.4040 0.2667 0.1400
0.4353 0.2667 0.1400
0.4667 0.2667 0.1400
0.4980 0.2667 0.1400
0.5293 0.2667 0.1400
0.5607 0.2667 0.1400
0.5920 0.2667 0.1400
0.6233 0.2667 0.1400
0.6547 0.2667 0.1400
0.6860 0.2667 0.1400
0.7173 0.2667 0.1400
0.7487 0.2667 0.1400
0.7800 0.2667 0.1400
0.3100 0.3033 0.1400
0.3413 0.3033 0.1400
0.3727 0.3033 0.1400
0.4040 0.3033 0.1400
0.4353 0.3033 0.1400
0.4667 0.3033 0.1400
0.4980 0.3033 0.1400
0.5293 0.3033 0.1400
0.5607 0.3033 0.1400
0.5920 0.3033 0.1400
0.6233 0.3033 0.1400
0.6547 0.3033 0.1400
0.6860 0.3033 0.1400
0.7173 0.3033 0.1400
0.7487 0.3033 0.1400
0.7800 0.3033 0.1400
0.3100 0.3400 0.1400
0.3413 0.3400 0.1400
0.3727 0.3400 0.1400
0.4040 0.3400 0.1400
0.4353 0.3400 0.1400
0.4667 0.3400 0.1400
0.4980 0.3400 0.1400
0.5293 0.3400 0.1400
0.5607 0.3400 0.1400
0.5920 0.3400 0.1400
0.6233 0.3400 0.1400
0.6547 0.3400 0.1400
0.6860 0.3400 0.1400
0.7173 0.3400 0.1400
0.7487 0.3400 0.1400
0.7800 0.3400 0.1400
0.3100 0.3767 0.1400
0.3413 0.3767 0.1400
0.3727 0.3767 0.1400
0.4040 0.3767 0.1400
0.4353 0.3767 0.1400
0.4667 0.3767 0.1400
0.4980 0.3767 0.1400
0.5293 0.3767 0.1400
0.5607 0.3767 0.1400
0.5920 0.3767 0.1400
0.6233 0.3767 0.1400
0.6547 0.3767 0.1400
0.6860 0.3767 0.1400
0.7173 0.3767 0.1400
0.7487 0.3767 0.1400
0.7800 0.3767 0.1400
0.3100 0.4133 0.1400
0.3413 0.4133 0.1400
0.3727 0.4133 0.1400
0.4040 0.4133 0.1400
0.4353 0.4133 0.1400
0.4667 0.4133 0.1400
0.4980 0.4133 0.1400
0.5293 0.4133 0.1400
0.5607 0.4133 0.1400
0.5920 0.4133 0.1400
0.6233 0.4133 0.1400
0.6547 0.4133 0.1400
0.6860 0.4133 0.1400
0.7173 0.4133 0.1400
0.7487 0.4133 0.1400
0.7800 0.4133 0.1400
0.3100 0.4500 0.1400
0.3413 0.4500 0.1400
0.3727 0.4500 0.1400
0.4040 0.4500 0.1400
0.4353 0.4500 0.1400
0.4667 0.4500 0.1400
0.4980 0.4500 0.1400
0.5293 0.4500 0.1400
0.5607 0.4500 0.1400
0.5920 0.4500 0.1400
0.6233 0.4500 0.1400
0.6547 0.4500 0.1400
0.6860 0.4500 0.1400
0.7173 0.4500 0.1400
0.7487 0.4500 0.1400
0.7800 0.4500 0.1400
0.3100 0.4867 0.1400
0.3413 0.4867 0.1400
0.3727 0.4867 0.1400
0.4040 0.4867 0.1400
0.4353 0.4867 0.1400
0.4667 0.4867 0.1400
0.4980 0.4867 0.1400
0.5293 0.4867 0.1400
0.5607 0.4867 0.1400
0.5920 0.4867 0.1400
0.6233 0.4867 0.1400
0.6547 0.4867 0.1400
0.6860 0.4867 0.1400
0.7173 0.4867 0.1400
0.7487 0.4867 0.1400
0.7800 0.4867 0.1400
0.3100 0.5233 0.1400
0.3413 0.5233 0.1400
0.3727 0.5233 0.1400
0.4040 0.5233 0.1400
0.4353 0.5233 0.1400
0.4667 0.5233 0.1400
0.4980 0.5233 0.1400
0.5293 0.5233 0.1400
0.5607 0.5233 0.1400
0.5920 0.5233 0.1400
0.6233 0.5233 0.1400
0.6547 0.5233 0.1400
0.6860 0.5233 0.1400
0.7173 0.5233 0.1400
0.7487 0.5233 0.1400
0.7800 0.5233 0.1400
0.3100 0.5600 0.1400
0.3413 0.5600 0.1400
0.3727 0.5600 0.1400
0.4040 0.5600 0.1400
0.4353 0.5600 0.1400
0.4667 0.5600 0.1400
0.4980 0.5600 0.1400
0.5293 0.5600 0.1400
0.5607 0.5600 0.1400
0.5920 0.5600 0.1400
0.6233 0.5600 0.1400
0.6547 0.5600 0.1400
0.6860 0.5600 0.1400
0.7173 0.5600 0.1400
0.7487 0.5600 0.1400
0.7800 0.5600 0.1400
0.3100 0.5967 0.1400
0.3413 0.5967 0.1400
0.3727 0.5967 0.1400
0.4040 0.5967 0.1400
0.4353 0.5967 0.1400
0.4667 0.5967 0.1400
0.4980 0.5967 0.1400
0.5293 0.5967 0.1400
0.5607 0.5967 0.1400
0.5920 0.5967 0.1400
0.6233 0.5967 0.1400
0.6547 0.5967 0.1400
0.6860 0.5967 0.1400
0.7173 0.5967 0.1400
0.7487 0.5967 0.1400
0.7800 0.5967 0.1400
0.3100 0.6333 0.1400
0.3413 0.6333 0.1400
0.3727 0.6333 0.1400
0.4040 0.6333 0.1400
0.4353 0.6333 0.1400
0.4667 0.6333 0.1400
0.4980 0.6333 0.1400
0.5293 0.6333 0.1400
0.5607 0.6333 0.1400
0.5920 0.6333 0.1400
0.6233 0.6333 0.1400
0.6547 0.6333 0.1400
0.6860 0.6333 0.1400
0.7173 0.6333 0.1400
0.7487 0.6333 0.1400
0.7800 0.6333 0.1400
0.3100 0.6700 0.1400
0.3413 0.6700 0.1400
0.3727 0.6700 0.1400
0.4040 0.6700 0.1400
0.4353 0.6700 0.1400
0.4667 0.6700 0.1400
0.4980 0.6700 0.1400
0.5293 0.6700 0.1400
0.5607 0.6700 0.1400
0.5920 0.6700 0.1400
0.6233 0.6700 0.1400
0.6547 0.6700 0.1400
0.6860 0.6700 0.1400
0.7173 0.6700 0.1400
0.7487 0.6700 0.1400
0.7800 0.6700 0.1400
0.3100 0.7067 0.1400
0.3413 0.7067 0.1400
0.3727 0.7067 0.1400
0.4040 0.7067 0.1400
0.4353 0.7067 0.1400
0.4667 0.7067 0.1400
0.4980 0.7067 0.1400
0.5293 0.7067 0.1400
0.5607 0.7067 0.1400
0.5920 0.7067 0.1400
0.6233 0.7067 0.1400
0.6547 0.7067 0.1400
0.6860 0.7067 0.1400
0.7173 0.7067 0.1400
0.7487 0.7067 0.1400
0.7800 0.7067 0.1400
0.3100 0.7433 0.1400
0.3413 0.7433 0.1400
0.3727 0.7433 0.1400
0.4040 0.7433 0.1400
0.4353 0.7433 0.1400
0.4667 0.7433 0.1400
0.4980 0.7433 0.1400
0.5293 0.7433 0.1400
0.5607 0.7433 0.1400
0.5920 0.7433 0.1400
0.6233 0.7433 0.1400
0.6547 0.7433 0.1400
0.6860 0.7433 0.1400
0.7173 0.7433 0.1400
0.7487 0.7433 0.1400
0.7800 0.7433 0.1400
0.3100 0.7800 0.1400
0.3413 0.7800 0.1400
0.3727 0.7800 0.1400
0.4040 0.7800 0.1400
0.4353 0.7800 0.1400
0.4667 0.7800 0.1400
0.4980 0.7800 0.1400
0.5293 0.7800 0.1400
0.5607 0.7800 0.1400
0.5920 0.7800 0.1400
0.6233 0.7800 0.1400
0.6547 0.7800 0.1400
0.6860 0.7800 0.1400
0.7173 0.7800 0.1400
0.7487 0.7800 0.1400
0.7800 0.7800 0.1400
0.3100 0.2300 0.1827
0.3413 0.2300 0.1827
0.3727 0.2300 0.1827
0.4040 0.2300 0.1827
0.4353 0.2300 0.1827
0.4667 0.2300 0.1827
0.4980 0.2300 0.1827
0.5293 0.2300 0.1827
0.5607 0.2300 0.1827
0.5920 0.2300 0.1827
0.6233 0.2300 0.1827
0.6547 0.2300 0.1827
0.6860 0.2300 0.1827
0.7173 0.2300 0.1827
0.7487 0.2300 0.1827
0.7800 0.2300 0.1827
0.3100 0.2667 0.1827
0.3413 0.2667 0.1827
0.3727 0.2667 0.1827
0.4040 0.2667 0.1827
0.4353 0.2667 0.1827
0.4667 0.2667 0.1827
0.4980 0.2667 0.1827
0.5293 0.2667 0.1827
0.5607 0.2667 0.1827
0.5920 0.2667 0.1827
0.6233 0.2667 0.1827
0.6547 0.2667 0.1827
0.6860 0.2667 0.1827
0.7173 0.2667 0.1827
0.7487 0.2667 0.1827
0.7800 0.2667 0.1827
0.3100 0.3033 0.1827
0.3413 0.3033 0.1827
0.3727 0.3033 0.1827
0.4040 0.3033 0.1827
0.4353 0.3033 0.1827
0.4667 0.3033 0.1827
0.4980 0.3033 0.1827
0.5293 0.3033 0.1827
0.5607 0.3033 0.1827
0.5920 0.3033 0.1827
0.6233 0.3033 0.1827
0.6547 0.3033 0.1827
0.6860 0.3033 0.1827
0.7173 0.3033 0.1827
0.7487 0.3033 0.1827
0.7800 0.3033 0.1827
0.3100 0.3400 0.1827
0.3413 0.3400 0.1827
0.3727 0.3400 0.1827
0.4040 0.3400 0.1827
0.4353 0.3400 0.1827
0.4667 0.3400 0.1827
0.4980 0.3400 0.1827
0.5293 0.3400 0.1827
0.5607 0.3400 0.1827
0.5920 0.3400 0.1827
0.6233 0.3400 0.1827
0.6547 0.3400 0.1827
0.6860 0.3400 0.1827
0.7173 0.3400 0.1827
0.7487 0.3400 0.1827
0.7800 0.3400 0.1827
0.3100 0.3767 0.1827
0.3413 0.3767 0.1827
0.3727 0.3767 0.1827
0.4040 0.3767 0.1827
0.4353 0.3767 0.1827
0.4667 0.3767 0.1827
0.4980 0.3767 0.1827
0.5293 0.3767 0.1827
0.5607 0.3767 0.1827
0.5920 0.3767 0.1827
0.6233 0.3767 0.1827
0.6547 0.3767 0.1827
0.6860 0.3767 0.1827
0.7173 0.3767 0.1827
0.7487 0.3767 0.1827
0.7800 0.3767 0.1827
0.3100 0.4133 0.1827
0.3413 0.4133 0.1827
0.3727 0.4133 0.1827
0.4040 0.4133 0.1827
0.4353 0.4133 0.1827
0.4667 0.4133 0.1827
0.4980 0.4133 0.1827
0.5293 0.4133 0.1827
0.5607 0.4133 0.1827
0.5920 0.4133 0.1827
0.6233 0.4133 0.1827
0.6547 0.4133 0.1827
0.6860 0.4133 0.1827
0.7173 0.4133 0.1827
0.7487 0.4133 0.1827
0.7800 0.4133 0.1827
0.3100 0.4500 0.1827
0.3413 0.4500 0.1827
0.3727 0.4500 0.1827
0.4040 0.4500 0.1827
0.4353 0.4500 0.1827
0.4667 0.4500 0.1827
0.4980 0.4500 0.1827
0.5293 0.4500 0.1827
0.5607 0.4500 0.1827
0.5920 0.4500 0.1827
0.6233 0.4500 0.1827
0.6547 0.4500 0.1827
0.6860 0.4500 0.1827
0.7173 0.4500 0.1827
0.7487 0.4500 0.1827
0.7800 0.4500 0.1827
0.3100 0.4867 0.1827
0.3413 0.4867 0.1827
0.3727 0.4867 0.1827
0.4040 0.4867 0.1827
0.4353 0.4867 0.1827
0.4667 0.4867 0.1827
0.4980 0.4867 0.1827
0.5293 0.4867 0.1827
0.5607 0.4867 0.1827
0.5920 0.4867 0.1827
0.6233 0.4867 0.1827
0.6547 0.4867 0.1827
0.6860 0.4867 0.1827
0.7173 0.4867 0.1827
0.7487 0.4867 0.1827
0.7800 0.4867 0.1827
0.3100 0.5233 0.1827
0.3413 0.5233 0.1827
0.3727 0.5233 0.1827
0.4040 0.5233 0.1827
0.4353 0.5233 0.1827
0.4667 0.5233 0.1827
0.4980 0.5233 0.1827
0.5293 0.5233 0.1827
0.5607 0.5233 0.1827
0.5920 0.5233 0.1827
0.6233 0.5233 0.1827
0.6547 0.5233 0.1827
0.6860 0.5233 0.1827
0.7173 0.5233 0.1827
0.7487 0.5233 0.1827
0.7800 0.5233 0.1827
0.3100 0.5600 0.1827
0.3413 0.5600 0.1827
0.3727 0.5600 0.1827
0.4040 0.5600 0.1827
0.4353 0.5600 0.1827
0.4667 0.5600 0.1827
0.4980 0.5600 0.1827
0.5293 0.5600 0.1827
0.5607 0.5600 0.1827
0.5920 0.5600 0.1827
0.6233 0.5600 0.1827
0.6547 0.5600 0.1827
0.6860 0.5600 0.1827
0.7173 0.5600 0.1827
0.7487 0.5600 0.1827
0.7800 0.5600 0.1827
0.3100 0.5967 0.1827
0.3413 0.5967 0.1827
0.3727 0.5967 0.1827
0.4040 0.5967 0.1827
0.4353 0.5967 0.1827
0.4667 0.5967 0.1827
0.4980 0.5967 0.1827
0.5293 0.5967 0.1827
0.5607 0.5967 0.1827
0.5920 0.5967 0.1827
0.6233 0.5967 0.1827
0.6547 0.5967 0.1827
0.6860 0.5967 0.1827
0.7173 0.5967 0.1827
0.7487 0.5967 0.1827
0.7800 0.5967 0.1827
0.3100 0.6333 0.1827
0.3413 0.6333 0.1827
0.3727 0.6333 0.1827
0.4040 0.6333 0.1827
0.4353 0.6333 0.1827
0.4667 0.6333 0.1827
0.4980 0.6333 0.1827
0.5293 0.6333 0.1827
0.5607 0.6333 0.1827
0.5920 0.6333 0.1827
0.6233 0.6333 0.1827
0.6547 0.6333 0.1827
0.6860 0.6333 0.1827
0.7173 0.6333 0.1827
0.7487 0.6333 0.1827
0.7800 0.6333 0.1827
0.3100 0.6700 0.1827
0.3413 0.6700 0.1827
0.3727 0.6700 0.1827
0.4040 0.6700 0.1827
0.4353 0.6700 0.1827
0.4667 0.6700 0.1827
0.4980 0.6700 0.1827
0.5293 0.6700 0.1827
0.5607 0.6700 0.1827
0.5920 0.6700 0.1827
0.6233 0.6700 0.1827
0.6547 0.6700 0.1827
0.6860 0.6700 0.1827
0.7173 0.6700 0.1827
0.7487 0.6700 0.1827
0.7800 0.6700 0.1827
0.3100 0.7067 0.1827
0.3413 0.7067 0.1827
0.3727 0.7067 0.1827
0.4040 0.7067 0.1827
0.4353 0.7067 0.1827
0.4667 0.7067 0.1827
0.4980 0.7067 0.1827
0.5293 0.7067 0.1827
0.5607 0.7067 0.1827
0.5920 0.7067 0.1827
0.6233 0.7067 0.1827
0.6547 0.7067 0.1827
0.6860 0.7067 0.1827
0.7173 0.7067 0.1827
0.7487 0.7067 0.1827
0.7800 0.7067 0.1827
0.3100 0.7433 0.1827
0.3413 0.7433 0.1827
0.3727 0.7433 0.1827
0.4040 0.7433 0.1827
0.4353 0.7433 0.1827
0.4667 0.7433 0.1827
0.4980 0.7433 0.1827
0.5293 0.7433 0.1827
0.5607 0.7433 0.1827
0.5920 0.7433 0.1827
0.6233 0.7433 0.1827
0.6547 0.7433 0.1827
0.6860 0.7433 0.1827
0.7173 0.7433 0.1827
0.7487 0.7433 0.1827
0.7800 0.7433 0.1827
0.3100 0.7800 0.1827
0.3413 0.7800 0.1827
0.3727 0.7800 0.1827
0.4040 0.7800 0.1827
0.4353 0.7800 0.1827
0.4667 0.7800 0.1827
0.4980 0.7800 0.1827
0.5293 0.7800 0.1827
0.5607 0.7800 0.1827
0.5920 0.7800 0.1827
0.6233 0.7800 0.1827
0.6547 0.7800 0.1827
0.6860 0.7800 0.1827
0.7173 0.7800 0.1827
0.7487 0.7800 0.1827
0.7800 0.7800 0.1827
0.3100 0.2300 0.2253
0.3413 0.2300 0.2253
0.3727 0.2300 0.2253
0.4040 0.2300 0.2253
0.4353 0.2300 0.2253
0.4667 0.2300 0.2253
0.4980 0.2300 0.2253
0.5293 0.2300 0.2253
0.5607 0.2300 0.2253
0.5920 0.2300 0.2253
0.6233 0.2300 0.2253
0.6547 0.2300 0.2253
0.6860 0.2300 0.2253
0.7173 0.2300 0.2253
0.7487 0.2300 0.2253
0.7800 0.2300 0.2253
0.3100 0.2667 0.2253
0.3413 0.2667 0.2253
0.3727 0.2667 0.2253
0.4040 0.2667 0.2253
0.4353 0.2667 0.2253
0.4667 0.2667 0.2253
0.4980 0.2667 0.2253
0.5293 0.2667 0.2253
0.5607 0.2667 0.2253
0.5920 0.2667 0.2253
0.6233 0.2667 0.2253
0.6547 0.2667 0.2253
0.6860 0.2667 0.2253
0.7173 0.2667 0.2253
0.7487 0.2667 0.2253
0.7800 0.2667 0.2253
0.3100 0.3033 0.2253
0.3413 0.3033 0.2253
0.3727 0.3033 0.2253
0.4040 0.3033 0.2253
0.4353 0.3033 0.2253
0.4667 0.3033 0.2253
0.4980 0.3033 0.2253
0.5293 0.3033 0.2253
0.5607 0.3033 0.2253
0.5920 0.3033 0.2253
0.6233 0.3033 0.2253
0.6547 0.3033 0.2253
0.6860 0.3033 0.2253
0.7173 0.3033 0.2253
0.7487 0.3033 0.2253
0.7800 0.3033 0.2253
0.3100 0.3400 0.2253
0.3413 0.3400 0.2253
0.3727 0.3400 0.2253
0.4040 0.3400 0.2253
0.4353 0.3400 0.2253
0.4667 0.3400 0.2253
0.4980 0.3400 0.2253
0.5293 0.3400 0.2253
0.5607 0.3400 0.2253
0.5920 0.3400 0.2253
0.6233 0.3400 0.2253
0.6547 0.3400 0.2253
0.6860 0.3400 0.2253
0.7173 0.3400 0.2253
0.7487 0.3400 0.2253
0.7800 0.3400 0.2253
0.3100 0.3767 0.2253
0.3413 0.3767 0.2253
0.3727 0.3767 0.2253
0.4040 0.3767 0.2253
0.4353 0.3767 0.2253
0.4667 0.3767 0.2253
0.4980 0.3767 0.2253
0.5293 0.3767 0.2253
0.5607 0.3767 0.2253
0.5920 0.3767 0.2253
0.6233 0.3767 0.2253
0.6547 0.3767 0.2253
0.6860 0.3767 0.2253
0.7173 0.3767 0.2253
0.7487 0.3767 0.2253
0.7800 0.3767 0.2253
0.3100 0.4133 0.2253
0.3413 0.4133 0.2253
0.3727 0.4133 0.2253
0.4040 0.4133 0.2253
0.4353 0.4133 0.2253
0.4667 0.4133 0.2253
0.4980 0.4133 0.2253
0.5293 0.4133 0.2253
0.5607 0.4133 0.2253
0.5920 0.4133 0.2253
0.6233 0.4133 0.2253
0.6547 0.4133 0.2253
0.6860 0.4133 0.2253
0.7173 0.4133 0.2253
0.7487 0.4133 0.2253
0.7800 0.4133 0.2253
0.3100 0.4500 0.2253
0.3413 0.4500 0.2253
0.3727 0.4500 0.2253
0.4040 0.4500 0.2253
0.4353 0.4500 0.2253
0.4667 0.4500 0.2253
0.4980 0.4500 0.2253
0.5293 0.4500 0.2253
0.5607 0.4500 0.2253
0.5920 0.4500 0.2253
0.6233 0.4500 0.2253
0.6547 0.4500 0.2253
0.6860 0.4500 0.2253
0.7173 0.4500 0.2253
0.7487 0.4500 0.2253
0.7800 0.4500 0.2253
0.3100 0.4867 0.2253
0.3413 0.4867 0.2253
0.3727 0.4867 0.2253
0.4040 0.4867 0.2253
0.4353 0.4867 0.2253
0.4667 0.4867 0.2253
0.4980 0.4867 0.2253
0.5293 0.4867 0.2253
0.5607 0.4867 0.2253
0.5920 0.4867 0.2253
0.6233 0.4867 0.2253
0.6547 0.4867 0.2253
0.6860 0.4867 0.2253
0.7173 0.4867 0.2253
0.7487 0.4867 0.2253
0.7800 0.4867 0.2253
0.3100 0.5233 0.2253
0.3413 0.5233 0.2253
0.3727 0.5233 0.2253
0.4040 0.5233 0.2253
0.4353 0.5233 0.2253
0.4667 0.5233 0.2253
0.4980 0.5233 0.2253
0.5293 0.5233 0.2253
0.5607 0.5233 0.2253
0.5920 0.5233 0.2253
0.6233 0.5233 0.2253
0.6547 0.5233 0.2253
0.6860 0.5233 0.2253
0.7173 0.5233 0.2253
0.7487 0.5233 0.2253
0.7800 0.5233 0.2253
0.3100 0.5600 0.2253
0.3413 0.5600 0.2253
0.3727 0.5600 0.2253
0.4040 0.5600 0.2253
0.4353 0.5600 0.2253
0.4667 0.5600 0.2253
0.4980 0.5600 0.2253
0.5293 0.5600 0.2253
0.5607 0.5600 0.2253
0.5920 0.5600 0.2253
0.6233 0.5600 0.2253
0.6547 0.5600 0.2253
0.6860 0.5600 0.2253
0.7173 0.5600 0.2253
0.7487 0.5600 0.2253
0.7800 0.5600 0.2253
0.3100 0.5967 0.2253
0.3413 0.5967 0.2253
0.3727 0.5967 0.2253
0.4040 0.5967 0.2253
0.4353 0.5967 0.2253
0.4667 0.5967 0.2253
0.4980 0.5967 0.2253
0.5293 0.5967 0.2253
0.5607 0.5967 0.2253
0.5920 0.5967 0.2253
0.6233 0.5967 0.2253
0.6547 0.5967 0.2253
0.6860 0.5967 0.2253
0.7173 0.5967 0.2253
0.7487 0.5967 0.2253
0.7800 0.5967 0.2253
0.3100 0.6333 0.2253
0.3413 0.6333 0.2253
0.3727 0.6333 0.2253
0.4040 0.6333 0.2253
0.4353 0.6333 0.2253
0.4667 0.6333 0.2253
0.4980 0.6333 0.2253
0.5293 0.6333 0.2253
0.5607 0.6333 0.2253
0.5920 0.6333 0.2253
0.6233 0.6333 0.2253
0.6547 0.6333 0.2253
0.6860 0.6333 0.2253
0.7173 0.6333 0.2253
0.7487 0.6333 0.2253
0.7800 0.6333 0.2253
0.3100 0.6700 0.2253
0.3413 0.6700 0.2253
0.3727 0.6700 0.2253
0.4040 0.6700 0.2253
0.4353 0.6700 0.2253
0.4667 0.6700 0.2253
0.4980 0.6700 0.2253
0.5293 0.6700 0.2253
0.5607 0.6700 0.2253
0.5920 0.6700 0.2253
0.6233 0.6700 0.2253
0.6547 0.6700 0.2253
0.6860 0.6700 0.2253
0.7173 0.6700 0.2253
0.7487 0.6700 0.2253
0.7800 0.6700 0.2253
0.3100 0.7067 0.2253
0.3413 0.7067 0.2253
0.3727 0.7067 0.2253
0.4040 0.7067 0.2253
0.4353 0.7067 0.2253
0.4667 0.7067 0.2253
0.4980 0.7067 0.2253
0.5293 0.7067 0.2253
0.5607 0.7067 0.2253
0.5920 0.7067 0.2253
0.6233 0.7067 0.2253
0.6547 0.7067 0.2253
0.6860 0.7067 0.2253
0.7173 0.7067 0.2253
0.7487 0.7067 0.2253
0.7800 0.7067 0.2253
0.3100 0.7433 0.2253
0.3413 0.7433 0.2253
0.3727 0.7433 0.2253
0.4040 0.7433 0.2253
0.4353 0.7433 0.2253
0.4667 0.7433 0.2253
0.4980 0.7433 0.2253
0.5293 0.7433 0.2253
0.5607 0.7433 0.2253
0.5920 0.7433 0.2253
0.6233 0.7433 0.2253
0.6547 0.7433 0.2253
0.6860 0.7433 0.2253
0.7173 0.7433 0.2253
0.7487 0.7433 0.2253
0.7800 0.7433 0.2253
0.3100 0.7800 0.2253
0.3413 0.7800 0.2253
0.3727 0.7800 0.2253
0.4040 0.7800 0.2253
0.4353 0.7800 0.2253
0.4667 0.7800 0.2253
0.4980 0.7800 0.2253
0.5293 0.7800 0.2253
0.5607 0.7800 0.2253
0.5920 0.7800 0.2253
0.6233 0.7800 0.2253
0.6547 0.7800 0.2253
0.6860 0.7800 0.2253
0.7173 0.7800 0.2253
0.7487 0.7800 0.2253
0.7800 0.7800 0.2253
0.3100 0.2300 0.2680
0.3413 0.2300 0.2680
0.3727 0.2300 0.2680
0.4040 0.2300 0.2680
0.4353 0.2300 0.2680
0.4667 0.2300 0.2680
0.4980 0.2300 0.2680
0.5293 0.2300 0.2680
0.5607 0.2300 0.2680
0.5920 0.2300 0.2680
0.6233 0.2300 0.2680
0.6547 0.2300 0.2680
0.6860 0.2300 0.2680
0.7173 0.2300 0.2680
0.7487 0.2300 0.2680
0.7800 0.2300 0.2680
0.3100 0.2667 0.2680
0.3413 0.2667 0.2680
0.3727 0.2667 0.2680
0.4040 0.2667 0.2680
0.4353 0.2667 0.2680
0.4667 0.2667 0.2680
0.4980 0.2667 0.2680
0.5293 0.2667 0.2680
0.5607 0.2667 0.2680
0.5920 0.2667 0.2680
0.6233 0.2667 0.2680
0.6547 0.2667 0.2680
0.6860 0.2667 0.2680
0.7173 0.2667 0.2680
0.7487 0.2667 0.2680
0.7800 0.2667 0.2680
0.3100 0.3033 0.2680
0.3413 0.3033 0.2680
0.3727 0.3033 0.2680
0.4040 0.3033 0.2680
0.4353 0.3033 0.2680
0.4667 0.3033 0.2680
0.4980 0.3033 0.2680
0.5293 0.3033 0.2680
0.5607 0.3033 0.2680
0.5920 0.3033 0.2680
0.6233 0.3033 0.2680
0.6547 0.3033 0.2680
0.6860 0.3033 0.2680
0.7173 0.3033 0.2680
0.7487 0.3033 0.2680
0.7800 0.3033 0.2680
0.3100 0.3400 0.2680
0.3413 0.3400 0.2680
0.3727 0.3400 0.2680
0.4040 0.3400 0.2680
0.4353 0.3400 0.2680
0.4667 0.3400 0.2680
0.4980 0.3400 0.2680
0.5293 0.3400 0.2680
0.5607 0.3400 0.2680
0.5920 0.3400 0.2680
0.6233 0.3400 0.2680
0.6547 0.3400 0.2680
0.6860 0.3400 0.2680
0.7173 0.3400 0.2680
0.7487 0.3400 0.2680
0.7800 0.3400 0.2680
0.3100 0.3767 0.2680
0.3413 0.3767 0.2680
0.3727 0.3767 0.2680
0.4040 0.3767 0.2680
0.4353 0.3767 0.2680
0.4667 0.3767 0.2680
0.4980 0.3767 0.2680
0.5293 0.3767 0.2680
0.5607 0.3767 0.2680
0.5920 0.3767 0.2680
0.6233 0.3767 0.2680
0.6547 0.3767 0.2680
0.6860 0.3767 0.2680
0.7173 0.3767 0.2680
0.7487 0.3767 0.2680
0.7800 0.3767 0.2680
0.3100 0.4133 0.2680
0.3413 0.4133 0.2680
0.3727 0.4133 0.2680
0.4040 0.4133 0.2680
0.4353 0.4133 0.2680
0.4667 0.4133 0.2680
0.4980 0.4133 0.2680
0.5293 0.4133 0.2680
0.5607 0.4133 0.2680
0.5920 0.4133 0.2680
0.6233 0.4133 0.2680
0.6547 0.4133 0.2680
0.6860 0.4133 0.2680
0.7173 0.4133 0.2680
0.7487 0.4133 0.2680
0.7800 0.4133 0.2680
0.3100 0.4500 0.2680
0.3413 0.4500 0.2680
0.3727 0.4500 0.2680
0.4040 0.4500 0.2680
0.4353 0.4500 0.2680
0.4667 0.4500 0.2680
0.4980 0.4500 0.2680
0.5293 0.4500 0.2680
0.5607 0.4500 0.2680
0.5920 0.4500 0.2680
0.6233 0.4500 0.2680
0.6547 0.4500 0.2680
0.6860 0.4500 0.2680
0.7173 0.4500 0.2680
0.7487 0.4500 0.2680
0.7800 0.4500 0.2680
0.3100 0.4867 0.2680
0.3413 0.4867 0.2680
0.3727 0.4867 0.2680
0.4040 0.4867 0.2680
0.4353 0.4867 0.2680
0.4667 0.4867 0.2680
0.4980 0.4867 0.2680
0.5293 0.4867 0.2680
0.5607 0.4867 0.2680
0.5920 0.4867 0.2680
0.6233 0.4867 0.2680
0.6547 0.4867 0.2680
0.6860 0.4867 0.2680
0.7173 0.4867 0.2680
0.7487 0.4867 0.2680
0.7800 0.4867 0.2680
0.3100 0.5233 0.2680
0.3413 0.5233 0.2680
0.3727 0.5233 0.2680
0.4040 0.5233 0.2680
