_examples/_cube_files/LUT3D_scoROT.cube
# Diego Inácio • 2017
TITLE "3D Simple Color Operator: Color Rotation"
LUT_3D_SIZE 16
0.9083 0.3344 0.7365
0.9083 0.3565 0.7049
0.9083 0.3786 0.6734
0.9083 0.4007 0.6419
0.9083 0.4227 0.6104
0.9083 0.4448 0.5788
0.9083 0.4669 0.5473
0.9083 0.4890 0.5158
0.9083 0.5110 0.4842
0.9083 0.5331 0.4527
0.9083 0.5552 0.4212
0.9083 0.5773 0.3896
0.9083 0.5993 0.3581
0.9083 0.6214 0.3266
0.9083 0.6435 0.2951
0.9083 0.6656 0.2635
0.8810 0.3121 0.7209
0.8810 0.3342 0.6893
0.8810 0.3563 0.6578
0.8810 0.3784 0.6263
0.8810 0.4004 0.5947
0.8810 0.4225 0.5632
0.8810 0.4446 0.5317
0.8810 0.4667 0.5002
0.8810 0.4887 0.4686
0.8810 0.5108 0.4371
0.8810 0.5329 0.4056
0.8810 0.5550 0.3740
0.8810 0.5771 0.3425
0.8810 0.5991 0.3110
0.8810 0.6212 0.2794
0.8810 0.6433 0.2479
0.8538 0.2898 0.7052
0.8538 0.3119 0.6737
0.8538 0.3340 0.6422
0.8538 0.3561 0.6107
0.8538 0.3781 0.5791
0.8538 0.4002 0.5476
0.8538 0.4223 0.5161
0.8538 0.4444 0.4845
0.8538 0.4664 0.4530
0.8538 0.4885 0.4215
0.8538 0.5106 0.3900
0.8538 0.5327 0.3584
0.8538 0.5548 0.3269
0.8538 0.5768 0.2954
0.8538 0.5989 0.2638
0.8538 0.6210 0.2323
0.8266 0.2675 0.6896
0.8266 0.2896 0.6581
0.8266 0.3117 0.6266
0.8266 0.3338 0.5950
0.8266 0.3558 0.5635
0.8266 0.3779 0.5320
0.8266 0.4000 0.5005
0.8266 0.4221 0.4689
0.8266 0.4442 0.4374
0.8266 0.4662 0.4059
0.8266 0.4883 0.3743
0.8266 0.5104 0.3428
0.8266 0.5325 0.3113
0.8266 0.5545 0.2798
0.8266 0.5766 0.2482
0.8266 0.5987 0.2167
0.7994 0.2452 0.6740
0.7994 0.2673 0.6425
0.7994 0.2894 0.6110
0.7994 0.3115 0.5794
0.7994 0.3336 0.5479
0.7994 0.3556 0.5164
0.7994 0.3777 0.4849
0.7994 0.3998 0.4533
0.7994 0.4219 0.4218
0.7994 0.4439 0.3903
0.7994 0.4660 0.3587
0.7994 0.4881 0.3272
0.7994 0.5102 0.2957
0.7994 0.5322 0.2641
0.7994 0.5543 0.2326
0.7994 0.5764 0.2011
0.7722 0.2229 0.6584
0.7722 0.2450 0.6269
0.7722 0.2671 0.5954
0.7722 0.2892 0.5638
0.7722 0.3113 0.5323
0.7722 0.3333 0.5008
0.7722 0.3554 0.4692
0.7722 0.3775 0.4377
0.7722 0.3996 0.4062
0.7722 0.4216 0.3747
0.7722 0.4437 0.3431
0.7722 0.4658 0.3116
0.7722 0.4879 0.2801
0.7722 0.5100 0.2485
0.7722 0.5320 0.2170
0.7722 0.5541 0.1855
0.7450 0.2007 0.6428
0.7450 0.2227 0.6113
0.7450 0.2448 0.5797
0.7450 0.2669 0.5482
0.7450 0.2890 0.5167
0.7450 0.3110 0.4852
0.7450 0.3331 0.4536
0.7450 0.3552 0.4221
0.7450 0.3773 0.3906
0.7450 0.3993 0.3590
0.7450 0.4214 0.3275
0.7450 0.4435 0.2960
0.7450 0.4656 0.2645
0.7450 0.4877 0.2329
0.7450 0.5097 0.2014
0.7450 0.5318 0.1699
0.7177 0.1784 0.6272
0.7177 0.2004 0.5957
0.7177 0.2225 0.5641
0.7177 0.2446 0.5326
0.7177 0.2667 0.5011
0.7177 0.2887 0.4695
0.7177 0.3108 0.4380
0.7177 0.3329 0.4065
0.7177 0.3550 0.3750
0.7177 0.3771 0.3434
0.7177 0.3991 0.3119
0.7177 0.4212 0.2804
0.7177 0.4433 0.2488
0.7177 0.4654 0.2173
0.7177 0.4874 0.1858
0.7177 0.5095 0.1543
0.6905 0.1561 0.6116
0.6905 0.1781 0.5801
0.6905 0.2002 0.5485
0.6905 0.2223 0.5170
0.6905 0.2444 0.4855
0.6905 0.2664 0.4539
0.6905 0.2885 0.4224
0.6905 0.3106 0.3909
0.6905 0.3327 0.3593
0.6905 0.3548 0.3278
0.6905 0.3768 0.2963
0.6905 0.3989 0.2648
0.6905 0.4210 0.2332
0.6905 0.4431 0.2017
0.6905 0.4651 0.1702
0.6905 0.4872 0.1386
0.6633 0.1338 0.5960
0.6633 0.1558 0.5644
0.6633 0.1779 0.5329
0.6633 0.2000 0.5014
0.6633 0.2221 0.4699
0.6633 0.2442 0.4383
0.6633 0.2662 0.4068
0.6633 0.2883 0.3753
0.6633 0.3104 0.3437
0.6633 0.3325 0.3122
0.6633 0.3545 0.2807
0.6633 0.3766 0.2491
0.6633 0.3987 0.2176
0.6633 0.4208 0.1861
0.6633 0.4428 0.1546
0.6633 0.4649 0.1230
0.6361 0.1115 0.5804
0.6361 0.1336 0.5488
0.6361 0.1556 0.5173
0.6361 0.1777 0.4858
0.6361 0.1998 0.4542
0.6361 0.2219 0.4227
0.6361 0.2439 0.3912
0.6361 0.2660 0.3597
0.6361 0.2881 0.3281
0.6361 0.3102 0.2966
0.6361 0.3322 0.2651
0.6361 0.3543 0.2335
0.6361 0.3764 0.2020
0.6361 0.3985 0.1705
0.6361 0.4206 0.1389
0.6361 0.4426 0.1074
0.6089 0.0892 0.5648
0.6089 0.1113 0.5332
0.6089 0.1333 0.5017
0.6089 0.1554 0.4702
0.6089 0.1775 0.4386
0.6089 0.1996 0.4071
0.6089 0.2216 0.3756
0.6089 0.2437 0.3440
0.6089 0.2658 0.3125
0.6089 0.2879 0.2810
0.6089 0.3100 0.2495
0.6089 0.3320 0.2179
0.6089 0.3541 0.1864
0.6089 0.3762 0.1549
0.6089 0.3983 0.1233
0.6089 0.4203 0.0918
0.5817 0.0669 0.5491
0.5817 0.0890 0.5176
0.5817 0.1110 0.4861
0.5817 0.1331 0.4546
0.5817 0.1552 0.4230
0.5817 0.1773 0.3915
0.5817 0.1993 0.3600
0.5817 0.2214 0.3284
0.5817 0.2435 0.2969
0.5817 0.2656 0.2654
0.5817 0.2877 0.2338
0.5817 0.3097 0.2023
0.5817 0.3318 0.1708
0.5817 0.3539 0.1393
0.5817 0.3760 0.1077
0.5817 0.3980 0.0762
0.5544 0.0446 0.5335
0.5544 0.0667 0.5020
0.5544 0.0887 0.4705
0.5544 0.1108 0.4389
0.5544 0.1329 0.4074
0.5544 0.1550 0.3759
0.5544 0.1771 0.3444
0.5544 0.1991 0.3128
0.5544 0.2212 0.2813
0.5544 0.2433 0.2498
0.5544 0.2654 0.2182
0.5544 0.2874 0.1867
0.5544 0.3095 0.1552
0.5544 0.3316 0.1236
0.5544 0.3537 0.0921
0.5544 0.3757 0.0606
0.5272 0.0223 0.5179
0.5272 0.0444 0.4864
0.5272 0.0664 0.4549
0.5272 0.0885 0.4233
0.5272 0.1106 0.3918
0.5272 0.1327 0.3603
0.5272 0.1548 0.3287
0.5272 0.1768 0.2972
0.5272 0.1989 0.2657
0.5272 0.2210 0.2342
0.5272 0.2431 0.2026
0.5272 0.2651 0.1711
0.5272 0.2872 0.1396
0.5272 0.3093 0.1080
0.5272 0.3314 0.0765
0.5272 0.3535 0.0450
0.5000 0.0000 0.5023
0.5000 0.0221 0.4708
0.5000 0.0442 0.4392
0.5000 0.0662 0.4077
0.5000 0.0883 0.3762
0.5000 0.1104 0.3447
0.5000 0.1325 0.3131
0.5000 0.1545 0.2816
0.5000 0.1766 0.2501
0.5000 0.1987 0.2185
0.5000 0.2208 0.1870
0.5000 0.2428 0.1555
0.5000 0.2649 0.1240
0.5000 0.2870 0.0924
0.5000 0.3091 0.0609
0.5000 0.3312 0.0294
0.8810 0.3567 0.7521
0.8810 0.3788 0.7206
0.8810 0.4009 0.6890
0.8810 0.4229 0.6575
0.8810 0.4450 0.6260
0.8810 0.4671 0.5944
0.8810 0.4892 0.5629
0.8810 0.5113 0.5314
0.8810 0.5333 0.4998
0.8810 0.5554 0.4683
0.8810 0.5775 0.4368
0.8810 0.5996 0.4053
0.8810 0.6216 0.3737
0.8810 0.6437 0.3422
0.8810 0.6658 0.3107
0.8810 0.6879 0.2791
0.8538 0.3344 0.7365
0.8538 0.3565 0.7049
0.8538 0.3786 0.6734
0.8538 0.4007 0.6419
0.8538 0.4227 0.6104
0.8538 0.4448 0.5788
0.8538 0.4669 0.5473
0.8538 0.4890 0.5158
0.8538 0.5110 0.4842
0.8538 0.5331 0.4527
0.8538 0.5552 0.4212
0.8538 0.5773 0.3896
0.8538 0.5993 0.3581
0.8538 0.6214 0.3266
0.8538 0.6435 0.2951
0.8538 0.6656 0.2635
0.8266 0.3121 0.7209
0.8266 0.3342 0.6893
0.8266 0.3563 0.6578
0.8266 0.3784 0.6263
0.8266 0.4004 0.5947
0.8266 0.4225 0.5632
0.8266 0.4446 0.5317
0.8266 0.4667 0.5002
0.8266 0.4887 0.4686
0.8266 0.5108 0.4371
0.8266 0.5329 0.4056
0.8266 0.5550 0.3740
0.8266 0.5771 0.3425
0.8266 0.5991 0.3110
0.8266 0.6212 0.2794
0.8266 0.6433 0.2479
0.7994 0.2898 0.7052
0.7994 0.3119 0.6737
0.7994 0.3340 0.6422
0.7994 0.3561 0.6107
0.7994 0.3781 0.5791
0.7994 0.4002 0.5476
0.7994 0.4223 0.5161
0.7994 0.4444 0.4845
0.7994 0.4664 0.4530
0.7994 0.4885 0.4215
0.7994 0.5106 0.3900
0.7994 0.5327 0.3584
0.7994 0.5548 0.3269
0.7994 0.5768 0.2954
0.7994 0.5989 0.2638
0.7994 0.6210 0.2323
0.7722 0.2675 0.6896
0.7722 0.2896 0.6581
0.7722 0.3117 0.6266
0.7722 0.3338 0.5950
0.7722 0.3558 0.5635
0.7722 0.3779 0.5320
0.7722 0.4000 0.5005
0.7722 0.4221 0.4689
0.7722 0.4442 0.4374
0.7722 0.4662 0.4059
0.7722 0.4883 0.3743
0.7722 0.5104 0.3428
0.7722 0.5325 0.3113
0.7722 0.5545 0.2798
0.7722 0.5766 0.2482
0.7722 0.5987 0.2167
0.7450 0.2452 0.6740
0.7450 0.2673 0.6425
0.7450 0.2894 0.6110
0.7450 0.3115 0.5794
0.7450 0.3336 0.5479
0.7450 0.3556 0.5164
0.7450 0.3777 0.4849
0.7450 0.3998 0.4533
0.7450 0.4219 0.4218
0.7450 0.4439 0.3903
0.7450 0.4660 0.3587
0.7450 0.4881 0.3272
0.7450 0.5102 0.2957
0.7450 0.5322 0.2641
0.7450 0.5543 0.2326
0.7450 0.5764 0.2011
0.7177 0.2229 0.6584
0.7177 0.2450 0.6269
0.7177 0.2671 0.5954
0.7177 0.2892 0.5638
0.7177 0.3113 0.5323
0.7177 0.3333 0.5008
0.7177 0.3554 0.4692
0.7177 0.3775 0.4377
0.7177 0.3996 0.4062
0.7177 0.4216 0.3747
0.7177 0.4437 0.3431
0.7177 0.4658 0.3116
0.7177 0.4879 0.2801
0.7177 0.5100 0.2485
0.7177 0.5320 0.2170
0.7177 0.5541 0.1855
0.6905 0.2007 0.6428
0.6905 0.2227 0.6113
0.6905 0.2448 0.5797
0.6905 0.2669 0.5482
0.6905 0.2890 0.5167
0.6905 0.3110 0.4852
0.6905 0.3331 0.4536
0.6905 0.3552 0.4221
0.6905 0.3773 0.3906
0.6905 0.3993 0.3590
0.6905 0.4214 0.3275
0.6905 0.4435 0.2960
0.6905 0.4656 0.2645
0.6905 0.4877 0.2329
0.6905 0.5097 0.2014
0.6905 0.5318 0.1699
0.6633 0.1784 0.6272
0.6633 0.2004 0.5957
0.6633 0.2225 0.5641
0.6633 0.2446 0.5326
0.6633 0.2667 0.5011
0.6633 0.2887 0.4695
0.6633 0.3108 0.4380
0.6633 0.3329 0.4065
0.6633 0.3550 0.3750
0.6633 0.3771 0.3434
0.6633 0.3991 0.3119
0.6633 0.4212 0.2804
0.6633 0.4433 0.2488
0.6633 0.4654 0.2173
0.6633 0.4874 0.1858
0.6633 0.5095 0.1543
0.6361 0.1561 0.6116
0.6361 0.1781 0.5801
0.6361 0.2002 0.5485
0.6361 0.2223 0.5170
0.6361 0.2444 0.4855
0.6361 0.2664 0.4539
0.6361 0.2885 0.4224
0.6361 0.3106 0.3909
0.6361 0.3327 0.3593
0.6361 0.3548 0.3278
0.6361 0.3768 0.2963
0.6361 0.3989 0.2648
0.6361 0.4210 0.2332
0.6361 0.4431 0.2017
0.6361 0.4651 0.1702
0.6361 0.4872 0.1386
0.6089 0.1338 0.5960
0.6089 0.1558 0.5644
0.6089 0.1779 0.5329
0.6089 0.2000 0.5014
0.6089 0.2221 0.4699
0.6089 0.2442 0.4383
0.6089 0.2662 0.4068
0.6089 0.2883 0.3753
0.6089 0.3104 0.3437
0.6089 0.3325 0.3122
0.6089 0.3545 0.2807
0.6089 0.3766 0.2491
0.6089 0.3987 0.2176
0.6089 0.4208 0.1861
0.6089 0.4428 0.1546
0.6089 0.4649 0.1230
0.5817 0.1115 0.5804
0.5817 0.1336 0.5488
0.5817 0.1556 0.5173
0.5817 0.1777 0.4858
0.5817 0.1998 0.4542
0.5817 0.2219 0.4227
0.5817 0.2439 0.3912
0.5817 0.2660 0.3597
0.5817 0.2881 0.3281
0.5817 0.3102 0.2966
0.5817 0.3322 0.2651
0.5817 0.3543 0.2335
0.5817 0.3764 0.2020
0.5817 0.3985 0.1705
0.5817 0.4206 0.1389
0.5817 0.4426 0.1074
0.5544 0.0892 0.5648
0.5544 0.1113 0.5332
0.5544 0.1333 0.5017
0.5544 0.1554 0.4702
0.5544 0.1775 0.4386
0.5544 0.1996 0.4071
0.5544 0.2216 0.3756
0.5544 0.2437 0.3440
0.5544 0.2658 0.3125
0.5544 0.2879 0.2810
0.5544 0.3100 0.2495
0.5544 0.3320 0.2179
0.5544 0.3541 0.1864
0.5544 0.3762 0.1549
0.5544 0.3983 0.1233
0.5544 0.4203 0.0918
0.5272 0.0669 0.5491
0.5272 0.0890 0.5176
0.5272 0.1110 0.4861
0.5272 0.1331 0.4546
0.5272 0.1552 0.4230
0.5272 0.1773 0.3915
0.5272 0.1993 0.3600
0.5272 0.2214 0.3284
0.5272 0.2435 0.2969
0.5272 0.2656 0.2654
0.5272 0.2877 0.2338
0.5272 0.3097 0.2023
0.5272 0.3318 0.1708
0.5272 0.3539 0.1393
0.5272 0.3760 0.1077
0.5272 0.3980 0.0762
0.5000 0.0446 0.5335
0.5000 0.0667 0.5020
0.5000 0.0887 0.4705
0.5000 0.1108 0.4389
0.5000 0.1329 0.4074
0.5000 0.1550 0.3759
0.5000 0.1771 0.3444
0.5000 0.1991 0.3128
0.5000 0.2212 0.2813
0.5000 0.2433 0.2498
0.5000 0.2654 0.2182
0.5000 0.2874 0.1867
0.5000 0.3095 0.1552
0.5000 0.3316 0.1236
0.5000 0.3537 0.0921
0.5000 0.3757 0.0606
0.4728 0.0223 0.5179
0.4728 0.0444 0.4864
0.4728 0.0664 0.4549
0.4728 0.0885 0.4233
0.4728 0.1106 0.3918
0.4728 0.1327 0.3603
0.4728 0.1548 0.3287
0.4728 0.1768 0.2972
0.4728 0.1989 0.2657
0.4728 0.2210 0.2342
0.4728 0.2431 0.2026
0.4728 0.2651 0.1711
0.4728 0.2872 0.1396
0.4728 0.3093 0.1080
0.4728 0.3314 0.0765
0.4728 0.3535 0.0450
0.8538 0.3790 0.7677
0.8538 0.4011 0.7362
0.8538 0.4232 0.7046
0.8538 0.4452 0.6731
0.8538 0.4673 0.6416
0.8538 0.4894 0.6100
0.8538 0.5115 0.5785
0.8538 0.5336 0.5470
0.8538 0.5556 0.5155
0.8538 0.5777 0.4839
0.8538 0.5998 0.4524
0.8538 0.6219 0.4209
0.8538 0.6439 0.3893
0.8538 0.6660 0.3578
0.8538 0.6881 0.3263
0.8538 0.7102 0.2948
0.8266 0.3567 0.7521
0.8266 0.3788 0.7206
0.8266 0.4009 0.6890
0.8266 0.4229 0.6575
0.8266 0.4450 0.6260
0.8266 0.4671 0.5944
0.8266 0.4892 0.5629
0.8266 0.5113 0.5314
0.8266 0.5333 0.4998
0.8266 0.5554 0.4683
0.8266 0.5775 0.4368
0.8266 0.5996 0.4053
0.8266 0.6216 0.3737
0.8266 0.6437 0.3422
0.8266 0.6658 0.3107
0.8266 0.6879 0.2791
0.7994 0.3344 0.7365
0.7994 0.3565 0.7049
0.7994 0.3786 0.6734
0.7994 0.4007 0.6419
0.7994 0.4227 0.6104
0.7994 0.4448 0.5788
0.7994 0.4669 0.5473
0.7994 0.4890 0.5158
0.7994 0.5110 0.4842
0.7994 0.5331 0.4527
0.7994 0.5552 0.4212
0.7994 0.5773 0.3896
0.7994 0.5993 0.3581
0.7994 0.6214 0.3266
0.7994 0.6435 0.2951
0.7994 0.6656 0.2635
0.7722 0.3121 0.7209
0.7722 0.3342 0.6893
0.7722 0.3563 0.6578
0.7722 0.3784 0.6263
0.7722 0.4004 0.5947
0.7722 0.4225 0.5632
0.7722 0.4446 0.5317
0.7722 0.4667 0.5002
0.7722 0.4887 0.4686
0.7722 0.5108 0.4371
0.7722 0.5329 0.4056
0.7722 0.5550 0.3740
0.7722 0.5771 0.3425
0.7722 0.5991 0.3110
0.7722 0.6212 0.2794
0.7722 0.6433 0.2479
0.7450 0.2898 0.7052
0.7450 0.3119 0.6737
0.7450 0.3340 0.6422
0.7450 0.3561 0.6107
0.7450 0.3781 0.5791
0.7450 0.4002 0.5476
0.7450 0.4223 0.5161
0.7450 0.4444 0.4845
0.7450 0.4664 0.4530
0.7450 0.4885 0.4215
0.7450 0.5106 0.3900
0.7450 0.5327 0.3584
0.7450 0.5548 0.3269
0.7450 0.5768 0.2954
0.7450 0.5989 0.2638
0.7450 0.6210 0.2323
0.7177 0.2675 0.6896
0.7177 0.2896 0.6581
0.7177 0.3117 0.6266
0.7177 0.3338 0.5950
0.7177 0.3558 0.5635
0.7177 0.3779 0.5320
0.7177 0.4000 0.5005
0.7177 0.4221 0.4689
0.7177 0.4442 0.4374
0.7177 0.4662 0.4059
0.7177 0.4883 0.3743
0.7177 0.5104 0.3428
0.7177 0.5325 0.3113
0.7177 0.5545 0.2798
0.7177 0.5766 0.2482
0.7177 0.5987 0.2167
0.6905 0.2452 0.6740
0.6905 0.2673 0.6425
0.6905 0.2894 0.6110
0.6905 0.3115 0.5794
0.6905 0.3336 0.5479
0.6905 0.3556 0.5164
0.6905 0.3777 0.4849
0.6905 0.3998 0.4533
0.6905 0.4219 0.4218
0.6905 0.4439 0.3903
0.6905 0.4660 0.3587
0.6905 0.4881 0.3272
0.6905 0.5102 0.2957
0.6905 0.5322 0.2641
0.6905 0.5543 0.2326
0.6905 0.5764 0.2011
0.6633 0.2229 0.6584
0.6633 0.2450 0.6269
0.6633 0.2671 0.5954
0.6633 0.2892 0.5638
0.6633 0.3113 0.5323
0.6633 0.3333 0.5008
0.6633 0.3554 0.4692
0.6633 0.3775 0.4377
0.6633 0.3996 0.4062
0.6633 0.4216 0.3747
0.6633 0.4437 0.3431
0.6633 0.4658 0.3116
0.6633 0.4879 0.2801
0.6633 0.5100 0.2485
0.6633 0.5320 0.2170
0.6633 0.5541 0.1855
0.6361 0.2007 0.6428
0.6361 0.2227 0.6113
0.6361 0.2448 0.5797
0.6361 0.2669 0.5482
0.6361 0.2890 0.5167
0.6361 0.3110 0.4852
0.6361 0.3331 0.4536
0.6361 0.3552 0.4221
0.6361 0.3773 0.3906
0.6361 0.3993 0.3590
0.6361 0.4214 0.3275
0.6361 0.4435 0.2960
0.6361 0.4656 0.2645
0.6361 0.4877 0.2329
0.6361 0.5097 0.2014
0.6361 0.5318 0.1699
0.6089 0.1784 0.6272
0.6089 0.2004 0.5957
0.6089 0.2225 0.5641
0.6089 0.2446 0.5326
0.6089 0.2667 0.5011
0.6089 0.2887 0.4695
0.6089 0.3108 0.4380
0.6089 0.3329 0.4065
0.6089 0.3550 0.3750
0.6089 0.3771 0.3434
0.6089 0.3991 0.3119
0.6089 0.4212 0.2804
0.6089 0.4433 0.2488
0.6089 0.4654 0.2173
0.6089 0.4874 0.1858
0.6089 0.5095 0.1543
0.5817 0.1561 0.6116
0.5817 0.1781 0.5801
0.5817 0.2002 0.5485
0.5817 0.2223 0.5170
0.5817 0.2444 0.4855
0.5817 0.2664 0.4539
0.5817 0.2885 0.4224
0.5817 0.3106 0.3909
0.5817 0.3327 0.3593
0.5817 0.3548 0.3278
0.5817 0.3768 0.2963
0.5817 0.3989 0.2648
0.5817 0.4210 0.2332
0.5817 0.4431 0.2017
0.5817 0.4651 0.1702
0.5817 0.4872 0.1386
0.5544 0.1338 0.5960
0.5544 0.1558 0.5644
0.5544 0.1779 0.5329
0.5544 0.2000 0.5014
0.5544 0.2221 0.4699
0.5544 0.2442 0.4383
0.5544 0.2662 0.4068
0.5544 0.2883 0.3753
0.5544 0.3104 0.3437
0.5544 0.3325 0.3122
0.5544 0.3545 0.2807
0.5544 0.3766 0.2491
0.5544 0.3987 0.2176
0.5544 0.4208 0.1861
0.5544 0.4428 0.1546
0.5544 0.4649 0.1230
0.5272 0.1115 0.5804
0.5272 0.1336 0.5488
0.5272 0.1556 0.5173
0.5272 0.1777 0.4858
0.5272 0.1998 0.4542
0.5272 0.2219 0.4227
0.5272 0.2439 0.3912
0.5272 0.2660 0.3597
0.5272 0.2881 0.3281
0.5272 0.3102 0.2966
0.5272 0.3322 0.2651
0.5272 0.3543 0.2335
0.5272 0.3764 0.2020
0.5272 0.3985 0.1705
0.5272 0.4206 0.1389
0.5272 0.4426 0.1074
0.5000 0.0892 0.5648
0.5000 0.1113 0.5332
0.5000 0.1333 0.5017
0.5000 0.1554 0.4702
0.5000 0.1775 0.4386
0.5000 0.1996 0.4071
0.5000 0.2216 0.3756
0.5000 0.2437 0.3440
0.5000 0.2658 0.3125
0.5000 0.2879 0.2810
0.5000 0.3100 0.2495
0.5000 0.3320 0.2179
0.5000 0.3541 0.1864
0.5000 0.3762 0.1549
0.5000 0.3983 0.1233
0.5000 0.4203 0.0918
0.4728 0.0669 0.5491
0.4728 0.0890 0.5176
0.4728 0.1110 0.4861
0.4728 0.1331 0.4546
0.4728 0.1552 0.4230
0.4728 0.1773 0.3915
0.4728 0.1993 0.3600
0.4728 0.2214 0.3284
0.4728 0.2435 0.2969
0.4728 0.2656 0.2654
0.4728 0.2877 0.2338
0.4728 0.3097 0.2023
0.4728 0.3318 0.1708
0.4728 0.3539 0.1393
0.4728 0.3760 0.1077
0.4728 0.3980 0.0762
0.4456 0.0446 0.5335
0.4456 0.0667 0.5020
0.4456 0.0887 0.4705
0.4456 0.1108 0.4389
0.4456 0.1329 0.4074
0.4456 0.1550 0.3759
0.4456 0.1771 0.3444
0.4456 0.1991 0.3128
0.4456 0.2212 0.2813
0.4456 0.2433 0.2498
0.4456 0.2654 0.2182
0.4456 0.2874 0.1867
0.4456 0.3095 0.1552
0.4456 0.3316 0.1236
0.4456 0.3537 0.0921
0.4456 0.3757 0.0606
0.8266 0.4013 0.7833
0.8266 0.4234 0.7518
0.8266 0.4455 0.7202
0.8266 0.4675 0.6887
0.8266 0.4896 0.6572
0.8266 0.5117 0.6257
0.8266 0.5338 0.5941
0.8266 0.5558 0.5626
0.8266 0.5779 0.5311
0.8266 0.6000 0.4995
0.8266 0.6221 0.4680
0.8266 0.6442 0.4365
0.8266 0.6662 0.4050
0.8266 0.6883 0.3734
0.8266 0.7104 0.3419
0.8266 0.7325 0.3104
0.7994 0.3790 0.7677
0.7994 0.4011 0.7362
0.7994 0.4232 0.7046
0.7994 0.4452 0.6731
0.7994 0.4673 0.6416
0.7994 0.4894 0.6100
0.7994 0.5115 0.5785
0.7994 0.5336 0.5470
0.7994 0.5556 0.5155
0.7994 0.5777 0.4839
0.7994 0.5998 0.4524
0.7994 0.6219 0.4209
0.7994 0.6439 0.3893
0.7994 0.6660 0.3578
0.7994 0.6881 0.3263
0.7994 0.7102 0.2948
0.7722 0.3567 0.7521
0.7722 0.3788 0.7206
0.7722 0.4009 0.6890
0.7722 0.4229 0.6575
0.7722 0.4450 0.6260
0.7722 0.4671 0.5944
0.7722 0.4892 0.5629
0.7722 0.5113 0.5314
0.7722 0.5333 0.4998
0.7722 0.5554 0.4683
0.7722 0.5775 0.4368
0.7722 0.5996 0.4053
0.7722 0.6216 0.3737
0.7722 0.6437 0.3422
0.7722 0.6658 0.3107
0.7722 0.6879 0.2791
0.7450 0.3344 0.7365
0.7450 0.3565 0.7049
0.7450 0.3786 0.6734
0.7450 0.4007 0.6419
0.7450 0.4227 0.6104
0.7450 0.4448 0.5788
0.7450 0.4669 0.5473
0.7450 0.4890 0.5158
0.7450 0.5110 0.4842
0.7450 0.5331 0.4527
0.7450 0.5552 0.4212
0.7450 0.5773 0.3896
0.7450 0.5993 0.3581
0.7450 0.6214 0.3266
0.7450 0.6435 0.2951
0.7450 0.6656 0.2635
0.7177 0.3121 0.7209
0.7177 0.3342 0.6893
0.7177 0.3563 0.6578
0.7177 0.3784 0.6263
0.7177 0.4004 0.5947
0.7177 0.4225 0.5632
0.7177 0.4446 0.5317
0.7177 0.4667 0.5002
0.7177 0.4887 0.4686
0.7177 0.5108 0.4371
0.7177 0.5329 0.4056
0.7177 0.5550 0.3740
0.7177 0.5771 0.3425
0.7177 0.5991 0.3110
0.7177 0.6212 0.2794
0.7177 0.6433 0.2479
0.6905 0.2898 0.7052
0.6905 0.3119 0.6737
0.6905 0.3340 0.6422
0.6905 0.3561 0.6107
0.6905 0.3781 0.5791
0.6905 0.4002 0.5476
0.6905 0.4223 0.5161
0.6905 0.4444 0.4845
0.6905 0.4664 0.4530
0.6905 0.4885 0.4215
0.6905 0.5106 0.3900
0.6905 0.5327 0.3584
0.6905 0.5548 0.3269
0.6905 0.5768 0.2954
0.6905 0.5989 0.2638
0.6905 0.6210 0.2323
0.6633 0.2675 0.6896
0.6633 0.2896 0.6581
0.6633 0.3117 0.6266
0.6633 0.3338 0.5950
0.6633 0.3558 0.5635
0.6633 0.3779 0.5320
0.6633 0.4000 0.5005
0.6633 0.4221 0.4689
0.6633 0.4442 0.4374
0.6633 0.4662 0.4059
0.6633 0.4883 0.3743
0.6633 0.5104 0.3428
0.6633 0.5325 0.3113
0.6633 0.5545 0.2798
0.6633 0.5766 0.2482
0.6633 0.5987 0.2167
0.6361 0.2452 0.6740
0.6361 0.2673 0.6425
0.6361 0.2894 0.6110
0.6361 0.3115 0.5794
0.6361 0.3336 0.5479
0.6361 0.3556 0.5164
0.6361 0.3777 0.4849
0.6361 0.3998 0.4533
0.6361 0.4219 0.4218
0.6361 0.4439 0.3903
0.6361 0.4660 0.3587
0.6361 0.4881 0.3272
0.6361 0.5102 0.2957
0.6361 0.5322 0.2641
0.6361 0.5543 0.2326
0.6361 0.5764 0.2011
0.6089 0.2229 0.6584
0.6089 0.2450 0.6269
0.6089 0.2671 0.5954
0.6089 0.2892 0.5638
