_examples/_cube_files/LUT3D_scoOFFSET.cube
# Diego Inácio • 2017
TITLE "3D Simple Color Operator: Color Offset"
LUT_3D_SIZE 6
0.3100 0.2300 0.1400
0.4040 0.2300 0.1400
0.4980 0.2300 0.1400
0.5920 0.2300 0.1400
0.6860 0.2300 0.1400
0.7800 0.2300 0.1400
0.3100 0.3400 0.1400
0.4040 0.3400 0.1400
0.4980 0.3400 0.1400
0.5920 0.3400 0.1400
0.6860 0.3400 0.1400
0.7800 0.3400 0.1400
0.3100 0.4500 0.1400
0.4040 0.4500 0.1400
0.4980 0.4500 0.1400
0.5920 0.4500 0.1400
0.6860 0.4500 0.1400
0.7800 0.4500 0.1400
0.3100 0.5600 0.1400
0.4040 0.5600 0.1400
0.4980 0.5600 0.1400
0.5920 0.5600 0.1400
0.6860 0.5600 0.1400
0.7800 0.5600 0.1400
0.3100 0.6700 0.1400
0.4040 0.6700 0.1400
0.4980 0.6700 0.1400
0.5920 0.6700 0.1400
0.6860 0.6700 0.1400
0.7800 0.6700 0.1400
0.3100 0.7800 0.1400
0.4040 0.7800 0.1400
0.4980 0.7800 0.1400
0.5920 0.7800 0.1400
0.6860 0.7800 0.1400
0.7800 0.7800 0.1400
0.3100 0.2300 0.2680
0.4040 0.2300 0.2680
0.4980 0.2300 0.2680
0.5920 0.2300 0.2680
0.6860 0.2300 0.2680
0.7800 0.2300 0.2680
0.3100 0.3400 0.2680
0.4040 0.3400 0.2680
0.4980 0.3400 0.2680
0.5920 0.3400 0.2680
0.6860 0.3400 0.2680
0.7800 0.3400 0.2680
0.3100 0.4500 0.2680
0.4040 0.4500 0.2680
0.4980 0.4500 0.2680
0.5920 0.4500 0.2680
0.6860 0.4500 0.2680
0.7800 0.4500 0.2680
0.3100 0.5600 0.2680
0.4040 0.5600 0.2680
0.4980 0.5600 0.2680
0.5920 0.5600 0.2680
0.6860 0.5600 0.2680
0.7800 0.5600 0.2680
0.3100 0.6700 0.2680
0.4040 0.6700 0.2680
0.4980 0.6700 0.2680
0.5920 0.6700 0.2680
0.6860 0.6700 0.2680
0.7800 0.6700 0.2680
0.3100 0.7800 0.2680
0.4040 0.7800 0.2680
0.4980 0.7800 0.2680
0.5920 0.7800 0.2680
0.6860 0.7800 0.2680
0.7800 0.7800 0.2680
0.3100 0.2300 0.3960
0.4040 0.2300 0.3960
0.4980 0.2300 0.3960
0.5920 0.2300 0.3960
0.6860 0.2300 0.3960
0.7800 0.2300 0.3960
0.3100 0.3400 0.3960
0.4040 0.3400 0.3960
0.4980 0.3400 0.3960
0.5920 0.3400 0.3960
0.6860 0.3400 0.3960
0.7800 0.3400 0.3960
0.3100 0.4500 0.3960
0.4040 0.4500 0.3960
0.4980 0.4500 0.3960
0.5920 0.4500 0.3960
0.6860 0.4500 0.3960
0.7800 0.4500 0.3960
0.3100 0.5600 0.3960
0.4040 0.5600 0.3960
0.4980 0.5600 0.3960
0.5920 0.5600 0.3960
0.6860 0.5600 0.3960
0.7800 0.5600 0.3960
0.3100 0.6700 0.3960
0.4040 0.6700 0.3960
0.4980 0.6700 0.3960
0.5920 0.6700 0.3960
0.6860 0.6700 0.3960
0.7800 0.6700 0.3960
0.3100 0.7800 0.3960
0.4040 0.7800 0.3960
0.4980 0.7800 0.3960
0.5920 0.7800 0.3960
0.6860 0.7800 0.3960
0.7800 0.7800 0.3960
0.3100 0.2300 0.5240
0.4040 0.2300 0.5240
0.4980 0.2300 0.5240
0.5920 0.2300 0.5240
0.6860 0.2300 0.5240
0.7800 0.2300 0.5240
0.3100 0.3400 0.5240
0.4040 0.3400 0.5240
0.4980 0.3400 0.5240
0.5920 0.3400 0.5240
0.6860 0.3400 0.5240
0.7800 0.3400 0.5240
0.3100 0.4500 0.5240
0.4040 0.4500 0.5240
0.4980 0.4500 0.5240
0.5920 0.4500 0.5240
0.6860 0.4500 0.5240
0.7800 0.4500 0.5240
0.3100 0.5600 0.5240
0.4040 0.5600 0.5240
0.4980 0.5600 0.5240
0.5920 0.5600 0.5240
0.6860 0.5600 0.5240
0.7800 0.5600 0.5240
0.3100 0.6700 0.5240
0.4040 0.6700 0.5240
0.4980 0.6700 0.5240
0.5920 0.6700 0.5240
0.6860 0.6700 0.5240
0.7800 0.6700 0.5240
0.3100 0.7800 0.5240
0.4040 0.7800 0.5240
0.4980 0.7800 0.5240
0.5920 0.7800 0.5240
0.6860 0.7800 0.5240
0.7800 0.7800 0.5240
0.3100 0.2300 0.6520
0.4040 0.2300 0.6520
0.4980 0.2300 0.6520
0.5920 0.2300 0.6520
0.6860 0.2300 0.6520
0.7800 0.2300 0.6520
0.3100 0.3400 0.6520
0.4040 0.3400 0.6520
0.4980 0.3400 0.6520
0.5920 0.3400 0.6520
0.6860 0.3400 0.6520
0.7800 0.3400 0.6520
0.3100 0.4500 0.6520
0.4040 0.4500 0.6520
0.4980 0.4500 0.6520
0.5920 0.4500 0.6520
0.6860 0.4500 0.6520
0.7800 0.4500 0.6520
0.3100 0.5600 0.6520
0.4040 0.5600 0.6520
0.4980 0.5600 0.6520
0.5920 0.5600 0.6520
0.6860 0.5600 0.6520
0.7800 0.5600 0.6520
0.3100 0.6700 0.6520
0.4040 0.6700 0.6520
0.4980 0.6700 0.6520
0.5920 0.6700 0.6520
0.6860 0.6700 0.6520
0.7800 0.6700 0.6520
0.3100 0.7800 0.6520
0.4040 0.7800 0.6520
0.4980 0.7800 0.6520
0.5920 0.7800 0.6520
0.6860 0.7800 0.6520
0.7800 0.7800 0.6520
0.3100 0.2300 0.7800
0.4040 0.2300 0.7800
0.4980 0.2300 0.7800
0.5920 0.2300 0.7800
0.6860 0.2300 0.7800
0.7800 0.2300 0.7800
0.3100 0.3400 0.7800
0.4040 0.3400 0.7800
0.4980 0.3400 0.7800
0.5920 0.3400 0.7800
0.6860 0.3400 0.7800
0.7800 0.3400 0.7800
0.3100 0.4500 0.7800
0.4040 0.4500 0.7800
0.4980 0.4500 0.7800
0.5920 0.4500 0.7800
0.6860 0.4500 0.7800
0.7800 0.4500 0.7800
0.3100 0.5600 0.7800
0.4040 0.5600 0.7800
0.4980 0.5600 0.7800
0.5920 0.5600 0.7800
0.6860 0.5600 0.7800
0.7800 0.5600 0.7800
0.3100 0.6700 0.7800
0.4040 0.6700 0.7800
0.4980 0.6700 0.7800
0.5920 0.6700 0.7800
0.6860 0.6700 0.7800
0.7800 0.6700 0.7800
0.3100 0.7800 0.7800
0.4040 0.7800 0.7800
0.4980 0.7800 0.7800
0.5920 0.7800 0.7800
0.6860 0.7800 0.7800
0.7800 0.7800 0.7800
