_examples/_cube_files/LUT3D_scoROT.cube
# Diego Inácio • 2017
TITLE "3D Simple Color Operator: Color Rotation"
LUT_3D_SIZE 6
0.9083 0.3344 0.7365
0.9083 0.4007 0.6419
0.9083 0.4669 0.5473
0.9083 0.5331 0.4527
0.9083 0.5993 0.3581
0.9083 0.6656 0.2635
0.8266 0.2675 0.6896
0.8266 0.3338 0.5950
0.8266 0.4000 0.5005
0.8266 0.4662 0.4059
0.8266 0.5325 0.3113
0.8266 0.5987 0.2167
0.7450 0.2007 0.6428
0.7450 0.2669 0.5482
0.7450 0.3331 0.4536
0.7450 0.3993 0.3590
0.7450 0.4656 0.2645
0.7450 0.5318 0.1699
0.6633 0.1338 0.5960
0.6633 0.2000 0.5014
0.6633 0.2662 0.4068
0.6633 0.3325 0.3122
0.6633 0.3987 0.2176
0.6633 0.4649 0.1230
0.5817 0.0669 0.5491
0.5817 0.1331 0.4546
0.5817 0.1993 0.3600
0.5817 0.2656 0.2654
0.5817 0.3318 0.1708
0.5817 0.3980 0.0762
0.5000 0.0000 0.5023
0.5000 0.0662 0.4077
0.5000 0.1325 0.3131
0.5000 0.1987 0.2185
0.5000 0.2649 0.1240
0.5000 0.3312 0.0294
0.8266 0.4013 0.7833
0.8266 0.4675 0.6887
0.8266 0.5338 0.5941
0.8266 0.6000 0.4995
0.8266 0.6662 0.4050
0.8266 0.7325 0.3104
0.7450 0.3344 0.7365
0.7450 0.4007 0.6419
0.7450 0.4669 0.5473
0.7450 0.5331 0.4527
0.7450 0.5993 0.3581
0.7450 0.6656 0.2635
0.6633 0.2675 0.6896
0.6633 0.3338 0.5950
0.6633 0.4000 0.5005
0.6633 0.4662 0.4059
0.6633 0.5325 0.3113
0.6633 0.5987 0.2167
0.5817 0.2007 0.6428
0.5817 0.2669 0.5482
0.5817 0.3331 0.4536
0.5817 0.3993 0.3590
0.5817 0.4656 0.2645
0.5817 0.5318 0.1699
0.5000 0.1338 0.5960
0.5000 0.2000 0.5014
0.5000 0.2662 0.4068
0.5000 0.3325 0.3122
0.5000 0.3987 0.2176
0.5000 0.4649 0.1230
0.4183 0.0669 0.5491
0.4183 0.1331 0.4546
0.4183 0.1993 0.3600
0.4183 0.2656 0.2654
0.4183 0.3318 0.1708
0.4183 0.3980 0.0762
0.7450 0.4682 0.8301
0.7450 0.5344 0.7355
0.7450 0.6007 0.6410
0.7450 0.6669 0.5464
0.7450 0.7331 0.4518
0.7450 0.7993 0.3572
0.6633 0.4013 0.7833
0.6633 0.4675 0.6887
0.6633 0.5338 0.5941
0.6633 0.6000 0.4995
0.6633 0.6662 0.4050
0.6633 0.7325 0.3104
0.5817 0.3344 0.7365
0.5817 0.4007 0.6419
0.5817 0.4669 0.5473
0.5817 0.5331 0.4527
0.5817 0.5993 0.3581
0.5817 0.6656 0.2635
0.5000 0.2675 0.6896
0.5000 0.3338 0.5950
0.5000 0.4000 0.5005
0.5000 0.4662 0.4059
0.5000 0.5325 0.3113
0.5000 0.5987 0.2167
0.4183 0.2007 0.6428
0.4183 0.2669 0.5482
0.4183 0.3331 0.4536
0.4183 0.3993 0.3590
0.4183 0.4656 0.2645
0.4183 0.5318 0.1699
0.3367 0.1338 0.5960
0.3367 0.2000 0.5014
0.3367 0.2662 0.4068
0.3367 0.3325 0.3122
0.3367 0.3987 0.2176
0.3367 0.4649 0.1230
0.6633 0.5351 0.8770
0.6633 0.6013 0.7824
0.6633 0.6675 0.6878
0.6633 0.7338 0.5932
0.6633 0.8000 0.4986
0.6633 0.8662 0.4040
0.5817 0.4682 0.8301
0.5817 0.5344 0.7355
0.5817 0.6007 0.6410
0.5817 0.6669 0.5464
0.5817 0.7331 0.4518
0.5817 0.7993 0.3572
0.5000 0.4013 0.7833
0.5000 0.4675 0.6887
0.5000 0.5338 0.5941
0.5000 0.6000 0.4995
0.5000 0.6662 0.4050
0.5000 0.7325 0.3104
0.4183 0.3344 0.7365
0.4183 0.4007 0.6419
0.4183 0.4669 0.5473
0.4183 0.5331 0.4527
0.4183 0.5993 0.3581
0.4183 0.6656 0.2635
0.3367 0.2675 0.6896
0.3367 0.3338 0.5950
0.3367 0.4000 0.5005
0.3367 0.4662 0.4059
0.3367 0.5325 0.3113
0.3367 0.5987 0.2167
0.2550 0.2007 0.6428
0.2550 0.2669 0.5482
0.2550 0.3331 0.4536
0.2550 0.3993 0.3590
0.2550 0.4656 0.2645
0.2550 0.5318 0.1699
0.5817 0.6020 0.9238
0.5817 0.6682 0.8292
0.5817 0.7344 0.7346
0.5817 0.8007 0.6400
0.5817 0.8669 0.5454
0.5817 0.9331 0.4509
0.5000 0.5351 0.8770
0.5000 0.6013 0.7824
0.5000 0.6675 0.6878
0.5000 0.7338 0.5932
0.5000 0.8000 0.4986
0.5000 0.8662 0.4040
0.4183 0.4682 0.8301
0.4183 0.5344 0.7355
0.4183 0.6007 0.6410
0.4183 0.6669 0.5464
0.4183 0.7331 0.4518
0.4183 0.7993 0.3572
0.3367 0.4013 0.7833
0.3367 0.4675 0.6887
0.3367 0.5338 0.5941
0.3367 0.6000 0.4995
0.3367 0.6662 0.4050
0.3367 0.7325 0.3104
0.2550 0.3344 0.7365
0.2550 0.4007 0.6419
0.2550 0.4669 0.5473
0.2550 0.5331 0.4527
0.2550 0.5993 0.3581
0.2550 0.6656 0.2635
0.1734 0.2675 0.6896
0.1734 0.3338 0.5950
0.1734 0.4000 0.5005
0.1734 0.4662 0.4059
0.1734 0.5325 0.3113
0.1734 0.5987 0.2167
0.5000 0.6688 0.9706
0.5000 0.7351 0.8760
0.5000 0.8013 0.7815
0.5000 0.8675 0.6869
0.5000 0.9338 0.5923
0.5000 1.0000 0.4977
0.4183 0.6020 0.9238
0.4183 0.6682 0.8292
0.4183 0.7344 0.7346
0.4183 0.8007 0.6400
0.4183 0.8669 0.5454
0.4183 0.9331 0.4509
0.3367 0.5351 0.8770
0.3367 0.6013 0.7824
0.3367 0.6675 0.6878
0.3367 0.7338 0.5932
0.3367 0.8000 0.4986
0.3367 0.8662 0.4040
0.2550 0.4682 0.8301
0.2550 0.5344 0.7355
0.2550 0.6007 0.6410
0.2550 0.6669 0.5464
0.2550 0.7331 0.4518
0.2550 0.7993 0.3572
0.1734 0.4013 0.7833
0.1734 0.4675 0.6887
0.1734 0.5338 0.5941
0.1734 0.6000 0.4995
0.1734 0.6662 0.4050
0.1734 0.7325 0.3104
0.0917 0.3344 0.7365
0.0917 0.4007 0.6419
0.0917 0.4669 0.5473
0.0917 0.5331 0.4527
0.0917 0.5993 0.3581
0.0917 0.6656 0.2635
