_examples/_cube_files/LUT3D_scoSAT.cube
# Diego Inácio • 2017
TITLE "3D Simple Color Operator: Color Saturation\Desaturation"
LUT_3D_SIZE 16
0.0018 0.0018 0.0000
0.0366 0.0133 0.0200
0.0715 0.0249 0.0400
0.1064 0.0365 0.0599
0.1412 0.0481 0.0799
0.1761 0.0597 0.0999
0.2110 0.0713 0.1199
0.2458 0.0829 0.1399
0.2807 0.0945 0.1598
0.3156 0.1060 0.1798
0.3504 0.1176 0.1998
0.3853 0.1292 0.2198
0.4201 0.1408 0.2397
0.4550 0.1524 0.2597
0.4899 0.1640 0.2797
0.5247 0.1756 0.2997
0.0133 0.0366 0.0200
0.0482 0.0482 0.0400
0.0831 0.0598 0.0599
0.1179 0.0714 0.0799
0.1528 0.0830 0.0999
0.1877 0.0946 0.1199
0.2225 0.1061 0.1399
0.2574 0.1177 0.1598
0.2923 0.1293 0.1798
0.3271 0.1409 0.1998
0.3620 0.1525 0.2198
0.3969 0.1641 0.2397
0.4317 0.1757 0.2597
0.4666 0.1873 0.2797
0.5015 0.1988 0.2997
0.5363 0.2104 0.3197
0.0249 0.0715 0.0400
0.0598 0.0831 0.0599
0.0947 0.0947 0.0799
0.1295 0.1062 0.0999
0.1644 0.1178 0.1199
0.1993 0.1294 0.1399
0.2341 0.1410 0.1598
0.2690 0.1526 0.1798
0.3039 0.1642 0.1998
0.3387 0.1758 0.2198
0.3736 0.1874 0.2397
0.4085 0.1989 0.2597
0.4433 0.2105 0.2797
0.4782 0.2221 0.2997
0.5131 0.2337 0.3197
0.5479 0.2453 0.3396
0.0365 0.1064 0.0599
0.0714 0.1179 0.0799
0.1062 0.1295 0.0999
0.1411 0.1411 0.1199
0.1760 0.1527 0.1399
0.2108 0.1643 0.1598
0.2457 0.1759 0.1798
0.2806 0.1875 0.1998
0.3154 0.1991 0.2198
0.3503 0.2106 0.2397
0.3852 0.2222 0.2597
0.4200 0.2338 0.2797
0.4549 0.2454 0.2997
0.4898 0.2570 0.3197
0.5246 0.2686 0.3396
0.5595 0.2802 0.3596
0.0481 0.1412 0.0799
0.0830 0.1528 0.0999
0.1178 0.1644 0.1199
0.1527 0.1760 0.1399
0.1876 0.1876 0.1598
0.2224 0.1992 0.1798
0.2573 0.2107 0.1998
0.2922 0.2223 0.2198
0.3270 0.2339 0.2397
0.3619 0.2455 0.2597
0.3968 0.2571 0.2797
0.4316 0.2687 0.2997
0.4665 0.2803 0.3197
0.5014 0.2919 0.3396
0.5362 0.3034 0.3596
0.5711 0.3150 0.3796
0.0597 0.1761 0.0999
0.0946 0.1877 0.1199
0.1294 0.1993 0.1399
0.1643 0.2108 0.1598
0.1992 0.2224 0.1798
0.2340 0.2340 0.1998
0.2689 0.2456 0.2198
0.3038 0.2572 0.2397
0.3386 0.2688 0.2597
0.3735 0.2804 0.2797
0.4084 0.2920 0.2997
0.4432 0.3035 0.3197
0.4781 0.3151 0.3396
0.5130 0.3267 0.3596
0.5478 0.3383 0.3796
0.5827 0.3499 0.3996
0.0713 0.2110 0.1199
0.1061 0.2225 0.1399
0.1410 0.2341 0.1598
0.1759 0.2457 0.1798
0.2107 0.2573 0.1998
0.2456 0.2689 0.2198
0.2805 0.2805 0.2397
0.3153 0.2921 0.2597
0.3502 0.3037 0.2797
0.3851 0.3152 0.2997
0.4199 0.3268 0.3197
0.4548 0.3384 0.3396
0.4897 0.3500 0.3596
0.5245 0.3616 0.3796
0.5594 0.3732 0.3996
0.5943 0.3848 0.4196
0.0829 0.2458 0.1399
0.1177 0.2574 0.1598
0.1526 0.2690 0.1798
0.1875 0.2806 0.1998
0.2223 0.2922 0.2198
0.2572 0.3038 0.2397
0.2921 0.3153 0.2597
0.3269 0.3269 0.2797
0.3618 0.3385 0.2997
0.3967 0.3501 0.3197
0.4315 0.3617 0.3396
0.4664 0.3733 0.3596
0.5013 0.3849 0.3796
0.5361 0.3965 0.3996
0.5710 0.4080 0.4196
0.6059 0.4196 0.4395
0.0945 0.2807 0.1598
0.1293 0.2923 0.1798
0.1642 0.3039 0.1998
0.1991 0.3154 0.2198
0.2339 0.3270 0.2397
0.2688 0.3386 0.2597
0.3037 0.3502 0.2797
0.3385 0.3618 0.2997
0.3734 0.3734 0.3197
0.4082 0.3850 0.3396
0.4431 0.3966 0.3596
0.4780 0.4081 0.3796
0.5128 0.4197 0.3996
0.5477 0.4313 0.4196
0.5826 0.4429 0.4395
0.6174 0.4545 0.4595
0.1060 0.3156 0.1798
0.1409 0.3271 0.1998
0.1758 0.3387 0.2198
0.2106 0.3503 0.2397
0.2455 0.3619 0.2597
0.2804 0.3735 0.2797
0.3152 0.3851 0.2997
0.3501 0.3967 0.3197
0.3850 0.4082 0.3396
0.4198 0.4198 0.3596
0.4547 0.4314 0.3796
0.4896 0.4430 0.3996
0.5244 0.4546 0.4196
0.5593 0.4662 0.4395
0.5942 0.4778 0.4595
0.6290 0.4894 0.4795
0.1176 0.3504 0.1998
0.1525 0.3620 0.2198
0.1874 0.3736 0.2397
0.2222 0.3852 0.2597
0.2571 0.3968 0.2797
0.2920 0.4084 0.2997
0.3268 0.4199 0.3197
0.3617 0.4315 0.3396
0.3966 0.4431 0.3596
0.4314 0.4547 0.3796
0.4663 0.4663 0.3996
0.5012 0.4779 0.4196
0.5360 0.4895 0.4395
0.5709 0.5011 0.4595
0.6058 0.5126 0.4795
0.6406 0.5242 0.4995
0.1292 0.3853 0.2198
0.1641 0.3969 0.2397
0.1989 0.4085 0.2597
0.2338 0.4200 0.2797
0.2687 0.4316 0.2997
0.3035 0.4432 0.3197
0.3384 0.4548 0.3396
0.3733 0.4664 0.3596
0.4081 0.4780 0.3796
0.4430 0.4896 0.3996
0.4779 0.5012 0.4196
0.5127 0.5127 0.4395
0.5476 0.5243 0.4595
0.5825 0.5359 0.4795
0.6173 0.5475 0.4995
0.6522 0.5591 0.5195
0.1408 0.4201 0.2397
0.1757 0.4317 0.2597
0.2105 0.4433 0.2797
0.2454 0.4549 0.2997
0.2803 0.4665 0.3197
0.3151 0.4781 0.3396
0.3500 0.4897 0.3596
0.3849 0.5013 0.3796
0.4197 0.5128 0.3996
0.4546 0.5244 0.4196
0.4895 0.5360 0.4395
0.5243 0.5476 0.4595
0.5592 0.5592 0.4795
0.5941 0.5708 0.4995
0.6289 0.5824 0.5195
0.6638 0.5940 0.5394
0.1524 0.4550 0.2597
0.1873 0.4666 0.2797
0.2221 0.4782 0.2997
0.2570 0.4898 0.3197
0.2919 0.5014 0.3396
0.3267 0.5130 0.3596
0.3616 0.5245 0.3796
0.3965 0.5361 0.3996
0.4313 0.5477 0.4196
0.4662 0.5593 0.4395
0.5011 0.5709 0.4595
0.5359 0.5825 0.4795
0.5708 0.5941 0.4995
0.6057 0.6057 0.5195
0.6405 0.6172 0.5394
0.6754 0.6288 0.5594
0.1640 0.4899 0.2797
0.1988 0.5015 0.2997
0.2337 0.5131 0.3197
0.2686 0.5246 0.3396
0.3034 0.5362 0.3596
0.3383 0.5478 0.3796
0.3732 0.5594 0.3996
0.4080 0.5710 0.4196
0.4429 0.5826 0.4395
0.4778 0.5942 0.4595
0.5126 0.6058 0.4795
0.5475 0.6173 0.4995
0.5824 0.6289 0.5195
0.6172 0.6405 0.5394
0.6521 0.6521 0.5594
0.6870 0.6637 0.5794
0.1756 0.5247 0.2997
0.2104 0.5363 0.3197
0.2453 0.5479 0.3396
0.2802 0.5595 0.3596
0.3150 0.5711 0.3796
0.3499 0.5827 0.3996
0.3848 0.5943 0.4196
0.4196 0.6059 0.4395
0.4545 0.6174 0.4595
0.4894 0.6290 0.4795
0.5242 0.6406 0.4995
0.5591 0.6522 0.5195
0.5940 0.6638 0.5394
0.6288 0.6754 0.5594
0.6637 0.6870 0.5794
0.6986 0.6986 0.5994
0.0217 0.0217 0.0267
0.0566 0.0333 0.0467
0.0915 0.0449 0.0667
0.1263 0.0565 0.0866
0.1612 0.0681 0.1066
0.1961 0.0797 0.1266
0.2309 0.0913 0.1466
0.2658 0.1028 0.1666
0.3007 0.1144 0.1865
0.3355 0.1260 0.2065
0.3704 0.1376 0.2265
0.4053 0.1492 0.2465
0.4401 0.1608 0.2665
0.4750 0.1724 0.2864
0.5099 0.1840 0.3064
0.5447 0.1955 0.3264
0.0333 0.0566 0.0467
0.0682 0.0682 0.0667
0.1031 0.0798 0.0866
0.1379 0.0914 0.1066
0.1728 0.1030 0.1266
0.2077 0.1145 0.1466
0.2425 0.1261 0.1666
0.2774 0.1377 0.1865
0.3123 0.1493 0.2065
0.3471 0.1609 0.2265
0.3820 0.1725 0.2465
0.4168 0.1841 0.2665
0.4517 0.1956 0.2864
0.4866 0.2072 0.3064
0.5214 0.2188 0.3264
0.5563 0.2304 0.3464
0.0449 0.0915 0.0667
0.0798 0.1031 0.0866
0.1146 0.1146 0.1066
0.1495 0.1262 0.1266
0.1844 0.1378 0.1466
0.2192 0.1494 0.1666
0.2541 0.1610 0.1865
0.2890 0.1726 0.2065
0.3238 0.1842 0.2265
0.3587 0.1958 0.2465
0.3936 0.2073 0.2665
0.4284 0.2189 0.2864
0.4633 0.2305 0.3064
0.4982 0.2421 0.3264
0.5330 0.2537 0.3464
0.5679 0.2653 0.3664
0.0565 0.1263 0.0866
0.0914 0.1379 0.1066
0.1262 0.1495 0.1266
0.1611 0.1611 0.1466
0.1960 0.1727 0.1666
0.2308 0.1843 0.1865
0.2657 0.1959 0.2065
0.3006 0.2074 0.2265
0.3354 0.2190 0.2465
0.3703 0.2306 0.2665
0.4052 0.2422 0.2864
0.4400 0.2538 0.3064
0.4749 0.2654 0.3264
0.5098 0.2770 0.3464
0.5446 0.2886 0.3664
0.5795 0.3001 0.3863
0.0681 0.1612 0.1066
0.1030 0.1728 0.1266
0.1378 0.1844 0.1466
0.1727 0.1960 0.1666
0.2075 0.2075 0.1865
0.2424 0.2191 0.2065
0.2773 0.2307 0.2265
0.3121 0.2423 0.2465
0.3470 0.2539 0.2665
0.3819 0.2655 0.2864
0.4167 0.2771 0.3064
0.4516 0.2887 0.3264
0.4865 0.3002 0.3464
0.5213 0.3118 0.3664
0.5562 0.3234 0.3863
0.5911 0.3350 0.4063
0.0797 0.1961 0.1266
0.1145 0.2077 0.1466
0.1494 0.2192 0.1666
0.1843 0.2308 0.1865
0.2191 0.2424 0.2065
0.2540 0.2540 0.2265
0.2889 0.2656 0.2465
0.3237 0.2772 0.2665
0.3586 0.2888 0.2864
0.3935 0.3004 0.3064
0.4283 0.3119 0.3264
0.4632 0.3235 0.3464
0.4981 0.3351 0.3664
0.5329 0.3467 0.3863
0.5678 0.3583 0.4063
0.6027 0.3699 0.4263
0.0913 0.2309 0.1466
0.1261 0.2425 0.1666
0.1610 0.2541 0.1865
0.1959 0.2657 0.2065
0.2307 0.2773 0.2265
0.2656 0.2889 0.2465
0.3005 0.3005 0.2665
0.3353 0.3120 0.2864
0.3702 0.3236 0.3064
0.4051 0.3352 0.3264
0.4399 0.3468 0.3464
0.4748 0.3584 0.3664
0.5097 0.3700 0.3863
0.5445 0.3816 0.4063
0.5794 0.3932 0.4263
0.6143 0.4047 0.4463
0.1028 0.2658 0.1666
0.1377 0.2774 0.1865
0.1726 0.2890 0.2065
0.2074 0.3006 0.2265
0.2423 0.3121 0.2465
0.2772 0.3237 0.2665
0.3120 0.3353 0.2864
0.3469 0.3469 0.3064
0.3818 0.3585 0.3264
0.4166 0.3701 0.3464
0.4515 0.3817 0.3664
0.4864 0.3933 0.3863
0.5212 0.4048 0.4063
0.5561 0.4164 0.4263
0.5910 0.4280 0.4463
0.6258 0.4396 0.4662
0.1144 0.3007 0.1865
0.1493 0.3123 0.2065
0.1842 0.3238 0.2265
0.2190 0.3354 0.2465
0.2539 0.3470 0.2665
0.2888 0.3586 0.2864
0.3236 0.3702 0.3064
0.3585 0.3818 0.3264
0.3934 0.3934 0.3464
0.4282 0.4049 0.3664
0.4631 0.4165 0.3863
0.4980 0.4281 0.4063
0.5328 0.4397 0.4263
0.5677 0.4513 0.4463
0.6026 0.4629 0.4662
0.6374 0.4745 0.4862
0.1260 0.3355 0.2065
0.1609 0.3471 0.2265
0.1958 0.3587 0.2465
0.2306 0.3703 0.2665
0.2655 0.3819 0.2864
0.3004 0.3935 0.3064
0.3352 0.4051 0.3264
0.3701 0.4166 0.3464
0.4049 0.4282 0.3664
0.4398 0.4398 0.3863
0.4747 0.4514 0.4063
0.5095 0.4630 0.4263
0.5444 0.4746 0.4463
0.5793 0.4862 0.4662
0.6141 0.4978 0.4862
0.6490 0.5093 0.5062
0.1376 0.3704 0.2265
0.1725 0.3820 0.2465
0.2073 0.3936 0.2665
0.2422 0.4052 0.2864
0.2771 0.4167 0.3064
0.3119 0.4283 0.3264
0.3468 0.4399 0.3464
0.3817 0.4515 0.3664
0.4165 0.4631 0.3863
0.4514 0.4747 0.4063
0.4863 0.4863 0.4263
0.5211 0.4979 0.4463
0.5560 0.5094 0.4662
0.5909 0.5210 0.4862
0.6257 0.5326 0.5062
0.6606 0.5442 0.5262
0.1492 0.4053 0.2465
0.1841 0.4168 0.2665
0.2189 0.4284 0.2864
0.2538 0.4400 0.3064
0.2887 0.4516 0.3264
0.3235 0.4632 0.3464
0.3584 0.4748 0.3664
0.3933 0.4864 0.3863
0.4281 0.4980 0.4063
0.4630 0.5095 0.4263
0.4979 0.5211 0.4463
0.5327 0.5327 0.4662
0.5676 0.5443 0.4862
0.6025 0.5559 0.5062
0.6373 0.5675 0.5262
0.6722 0.5791 0.5462
0.1608 0.4401 0.2665
0.1956 0.4517 0.2864
0.2305 0.4633 0.3064
0.2654 0.4749 0.3264
0.3002 0.4865 0.3464
0.3351 0.4981 0.3664
0.3700 0.5097 0.3863
0.4048 0.5212 0.4063
0.4397 0.5328 0.4263
0.4746 0.5444 0.4463
0.5094 0.5560 0.4662
0.5443 0.5676 0.4862
0.5792 0.5792 0.5062
0.6140 0.5908 0.5262
0.6489 0.6024 0.5462
0.6838 0.6139 0.5661
0.1724 0.4750 0.2864
0.2072 0.4866 0.3064
0.2421 0.4982 0.3264
0.2770 0.5098 0.3464
0.3118 0.5213 0.3664
0.3467 0.5329 0.3863
0.3816 0.5445 0.4063
0.4164 0.5561 0.4263
0.4513 0.5677 0.4463
0.4862 0.5793 0.4662
0.5210 0.5909 0.4862
0.5559 0.6025 0.5062
0.5908 0.6140 0.5262
0.6256 0.6256 0.5462
0.6605 0.6372 0.5661
0.6954 0.6488 0.5861
0.1840 0.5099 0.3064
0.2188 0.5214 0.3264
0.2537 0.5330 0.3464
0.2886 0.5446 0.3664
0.3234 0.5562 0.3863
0.3583 0.5678 0.4063
0.3932 0.5794 0.4263
0.4280 0.5910 0.4463
0.4629 0.6026 0.4662
0.4978 0.6141 0.4862
0.5326 0.6257 0.5062
0.5675 0.6373 0.5262
0.6024 0.6489 0.5462
0.6372 0.6605 0.5661
0.6721 0.6721 0.5861
0.7069 0.6837 0.6061
0.1955 0.5447 0.3264
0.2304 0.5563 0.3464
0.2653 0.5679 0.3664
0.3001 0.5795 0.3863
0.3350 0.5911 0.4063
0.3699 0.6027 0.4263
0.4047 0.6143 0.4463
0.4396 0.6258 0.4662
0.4745 0.6374 0.4862
0.5093 0.6490 0.5062
0.5442 0.6606 0.5262
0.5791 0.6722 0.5462
0.6139 0.6838 0.5661
0.6488 0.6954 0.5861
0.6837 0.7069 0.6061
0.7185 0.7185 0.6261
0.0417 0.0417 0.0534
0.0766 0.0533 0.0734
0.1114 0.0649 0.0934
0.1463 0.0765 0.1134
0.1812 0.0881 0.1333
0.2160 0.0997 0.1533
0.2509 0.1112 0.1733
0.2858 0.1228 0.1933
0.3206 0.1344 0.2132
0.3555 0.1460 0.2332
0.3904 0.1576 0.2532
0.4252 0.1692 0.2732
0.4601 0.1808 0.2932
0.4950 0.1923 0.3131
0.5298 0.2039 0.3331
0.5647 0.2155 0.3531
0.0533 0.0766 0.0734
0.0882 0.0882 0.0934
0.1230 0.0998 0.1134
0.1579 0.1113 0.1333
0.1928 0.1229 0.1533
0.2276 0.1345 0.1733
0.2625 0.1461 0.1933
0.2974 0.1577 0.2132
0.3322 0.1693 0.2332
0.3671 0.1809 0.2532
0.4020 0.1925 0.2732
0.4368 0.2040 0.2932
0.4717 0.2156 0.3131
0.5066 0.2272 0.3331
0.5414 0.2388 0.3531
0.5763 0.2504 0.3731
0.0649 0.1114 0.0934
0.0998 0.1230 0.1134
0.1346 0.1346 0.1333
0.1695 0.1462 0.1533
0.2044 0.1578 0.1733
0.2392 0.1694 0.1933
0.2741 0.1810 0.2132
0.3090 0.1926 0.2332
0.3438 0.2041 0.2532
0.3787 0.2157 0.2732
0.4135 0.2273 0.2932
0.4484 0.2389 0.3131
0.4833 0.2505 0.3331
0.5181 0.2621 0.3531
0.5530 0.2737 0.3731
0.5879 0.2853 0.3931
0.0765 0.1463 0.1134
0.1113 0.1579 0.1333
0.1462 0.1695 0.1533
0.1811 0.1811 0.1733
0.2159 0.1927 0.1933
0.2508 0.2042 0.2132
0.2857 0.2158 0.2332
0.3205 0.2274 0.2532
0.3554 0.2390 0.2732
0.3903 0.2506 0.2932
0.4251 0.2622 0.3131
0.4600 0.2738 0.3331
0.4949 0.2854 0.3531
0.5297 0.2969 0.3731
0.5646 0.3085 0.3931
0.5995 0.3201 0.4130
0.0881 0.1812 0.1333
0.1229 0.1928 0.1533
0.1578 0.2044 0.1733
0.1927 0.2159 0.1933
0.2275 0.2275 0.2132
0.2624 0.2391 0.2332
0.2973 0.2507 0.2532
0.3321 0.2623 0.2732
0.3670 0.2739 0.2932
0.4019 0.2855 0.3131
0.4367 0.2971 0.3331
0.4716 0.3086 0.3531
0.5065 0.3202 0.3731
0.5413 0.3318 0.3931
0.5762 0.3434 0.4130
0.6111 0.3550 0.4330
0.0997 0.2160 0.1533
0.1345 0.2276 0.1733
0.1694 0.2392 0.1933
0.2042 0.2508 0.2132
0.2391 0.2624 0.2332
0.2740 0.2740 0.2532
0.3088 0.2856 0.2732
0.3437 0.2972 0.2932
0.3786 0.3087 0.3131
0.4134 0.3203 0.3331
0.4483 0.3319 0.3531
0.4832 0.3435 0.3731
0.5180 0.3551 0.3931
0.5529 0.3667 0.4130
0.5878 0.3783 0.4330
0.6226 0.3899 0.4530
0.1112 0.2509 0.1733
0.1461 0.2625 0.1933
0.1810 0.2741 0.2132
0.2158 0.2857 0.2332
0.2507 0.2973 0.2532
0.2856 0.3088 0.2732
0.3204 0.3204 0.2932
0.3553 0.3320 0.3131
0.3902 0.3436 0.3331
0.4250 0.3552 0.3531
0.4599 0.3668 0.3731
0.4948 0.3784 0.3931
0.5296 0.3900 0.4130
0.5645 0.4015 0.4330
0.5994 0.4131 0.4530
0.6342 0.4247 0.4730
0.1228 0.2858 0.1933
0.1577 0.2974 0.2132
0.1926 0.3090 0.2332
0.2274 0.3205 0.2532
0.2623 0.3321 0.2732
0.2972 0.3437 0.2932
0.3320 0.3553 0.3131
0.3669 0.3669 0.3331
0.4018 0.3785 0.3531
0.4366 0.3901 0.3731
0.4715 0.4017 0.3931
0.5064 0.4132 0.4130
0.5412 0.4248 0.4330
0.5761 0.4364 0.4530
0.6110 0.4480 0.4730
0.6458 0.4596 0.4930
0.1344 0.3206 0.2132
0.1693 0.3322 0.2332
0.2041 0.3438 0.2532
0.2390 0.3554 0.2732
0.2739 0.3670 0.2932
0.3087 0.3786 0.3131
0.3436 0.3902 0.3331
0.3785 0.4018 0.3531
0.4133 0.4133 0.3731
0.4482 0.4249 0.3931
0.4831 0.4365 0.4130
0.5179 0.4481 0.4330
0.5528 0.4597 0.4530
0.5877 0.4713 0.4730
0.6225 0.4829 0.4930
0.6574 0.4945 0.5129
0.1460 0.3555 0.2332
0.1809 0.3671 0.2532
0.2157 0.3787 0.2732
0.2506 0.3903 0.2932
0.2855 0.4019 0.3131
0.3203 0.4134 0.3331
0.3552 0.4250 0.3531
0.3901 0.4366 0.3731
0.4249 0.4482 0.3931
0.4598 0.4598 0.4130
0.4947 0.4714 0.4330
0.5295 0.4830 0.4530
0.5644 0.4946 0.4730
0.5993 0.5061 0.4930
0.6341 0.5177 0.5129
0.6690 0.5293 0.5329
0.1576 0.3904 0.2532
0.1925 0.4020 0.2732
0.2273 0.4135 0.2932
0.2622 0.4251 0.3131
0.2971 0.4367 0.3331
0.3319 0.4483 0.3531
0.3668 0.4599 0.3731
0.4017 0.4715 0.3931
0.4365 0.4831 0.4130
0.4714 0.4947 0.4330
0.5062 0.5062 0.4530
0.5411 0.5178 0.4730
0.5760 0.5294 0.4930
0.6108 0.5410 0.5129
0.6457 0.5526 0.5329
0.6806 0.5642 0.5529
0.1692 0.4252 0.2732
0.2040 0.4368 0.2932
0.2389 0.4484 0.3131
0.2738 0.4600 0.3331
0.3086 0.4716 0.3531
0.3435 0.4832 0.3731
0.3784 0.4948 0.3931
0.4132 0.5064 0.4130
0.4481 0.5179 0.4330
0.4830 0.5295 0.4530
0.5178 0.5411 0.4730
0.5527 0.5527 0.4930
0.5876 0.5643 0.5129
0.6224 0.5759 0.5329
0.6573 0.5875 0.5529
0.6922 0.5991 0.5729
0.1808 0.4601 0.2932
0.2156 0.4717 0.3131
0.2505 0.4833 0.3331
0.2854 0.4949 0.3531
0.3202 0.5065 0.3731
0.3551 0.5180 0.3931
0.3900 0.5296 0.4130
0.4248 0.5412 0.4330
0.4597 0.5528 0.4530
0.4946 0.5644 0.4730
0.5294 0.5760 0.4930
0.5643 0.5876 0.5129
0.5992 0.5992 0.5329
0.6340 0.6107 0.5529
0.6689 0.6223 0.5729
0.7038 0.6339 0.5929
0.1923 0.4950 0.3131
0.2272 0.5066 0.3331
0.2621 0.5181 0.3531
0.2969 0.5297 0.3731
0.3318 0.5413 0.3931
0.3667 0.5529 0.4130
0.4015 0.5645 0.4330
0.4364 0.5761 0.4530
0.4713 0.5877 0.4730
0.5061 0.5993 0.4930
0.5410 0.6108 0.5129
0.5759 0.6224 0.5329
0.6107 0.6340 0.5529
0.6456 0.6456 0.5729
0.6805 0.6572 0.5929
0.7153 0.6688 0.6128
0.2039 0.5298 0.3331
0.2388 0.5414 0.3531
0.2737 0.5530 0.3731
0.3085 0.5646 0.3931
0.3434 0.5762 0.4130
0.3783 0.5878 0.4330
0.4131 0.5994 0.4530
0.4480 0.6110 0.4730
0.4829 0.6225 0.4930
0.5177 0.6341 0.5129
0.5526 0.6457 0.5329
0.5875 0.6573 0.5529
0.6223 0.6689 0.5729
0.6572 0.6805 0.5929
0.6921 0.6921 0.6128
0.7269 0.7036 0.6328
0.2155 0.5647 0.3531
0.2504 0.5763 0.3731
0.2853 0.5879 0.3931
0.3201 0.5995 0.4130
0.3550 0.6111 0.4330
0.3899 0.6226 0.4530
0.4247 0.6342 0.4730
0.4596 0.6458 0.4930
0.4945 0.6574 0.5129
0.5293 0.6690 0.5329
0.5642 0.6806 0.5529
0.5991 0.6922 0.5729
0.6339 0.7038 0.5929
0.6688 0.7153 0.6128
0.7036 0.7269 0.6328
0.7385 0.7385 0.6528
0.0617 0.0617 0.0801
0.0966 0.0733 0.1001
0.1314 0.0849 0.1201
0.1663 0.0965 0.1401
0.2012 0.1080 0.1600
0.2360 0.1196 0.1800
0.2709 0.1312 0.2000
0.3058 0.1428 0.2200
0.3406 0.1544 0.2400
0.3755 0.1660 0.2599
0.4104 0.1776 0.2799
0.4452 0.1892 0.2999
0.4801 0.2007 0.3199
0.5150 0.2123 0.3399
0.5498 0.2239 0.3598
0.5847 0.2355 0.3798
0.0733 0.0966 0.1001
0.1081 0.1081 0.1201
0.1430 0.1197 0.1401
0.1779 0.1313 0.1600
0.2127 0.1429 0.1800
0.2476 0.1545 0.2000
0.2825 0.1661 0.2200
0.3173 0.1777 0.2400
0.3522 0.1893 0.2599
0.3871 0.2008 0.2799
0.4219 0.2124 0.2999
0.4568 0.2240 0.3199
0.4917 0.2356 0.3399
0.5265 0.2472 0.3598
0.5614 0.2588 0.3798
0.5963 0.2704 0.3998
0.0849 0.1314 0.1201
0.1197 0.1430 0.1401
0.1546 0.1546 0.1600
0.1895 0.1662 0.1800
0.2243 0.1778 0.2000
0.2592 0.1894 0.2200
0.2941 0.2009 0.2400
0.3289 0.2125 0.2599
0.3638 0.2241 0.2799
0.3987 0.2357 0.2999
0.4335 0.2473 0.3199
0.4684 0.2589 0.3399
0.5033 0.2705 0.3598
0.5381 0.2821 0.3798
0.5730 0.2936 0.3998
0.6079 0.3052 0.4198
0.0965 0.1663 0.1401
0.1313 0.1779 0.1600
0.1662 0.1895 0.1800
0.2011 0.2011 0.2000
0.2359 0.2126 0.2200
0.2708 0.2242 0.2400
0.3057 0.2358 0.2599
0.3405 0.2474 0.2799
0.3754 0.2590 0.2999
0.4103 0.2706 0.3199
0.4451 0.2822 0.3399
0.4800 0.2938 0.3598
0.5148 0.3053 0.3798
0.5497 0.3169 0.3998
0.5846 0.3285 0.4198
0.6194 0.3401 0.4397
0.1080 0.2012 0.1600
0.1429 0.2127 0.1800
0.1778 0.2243 0.2000
0.2126 0.2359 0.2200
0.2475 0.2475 0.2400
0.2824 0.2591 0.2599
0.3172 0.2707 0.2799
0.3521 0.2823 0.2999
0.3870 0.2939 0.3199
0.4218 0.3054 0.3399
0.4567 0.3170 0.3598
0.4916 0.3286 0.3798
0.5264 0.3402 0.3998
0.5613 0.3518 0.4198
0.5962 0.3634 0.4397
0.6310 0.3750 0.4597
0.1196 0.2360 0.1800
0.1545 0.2476 0.2000
0.1894 0.2592 0.2200
0.2242 0.2708 0.2400
0.2591 0.2824 0.2599
0.2940 0.2940 0.2799
0.3288 0.3055 0.2999
0.3637 0.3171 0.3199
0.3986 0.3287 0.3399
0.4334 0.3403 0.3598
0.4683 0.3519 0.3798
0.5032 0.3635 0.3998
0.5380 0.3751 0.4198
0.5729 0.3867 0.4397
0.6078 0.3982 0.4597
0.6426 0.4098 0.4797
0.1312 0.2709 0.2000
0.1661 0.2825 0.2200
0.2009 0.2941 0.2400
0.2358 0.3057 0.2599
0.2707 0.3172 0.2799
0.3055 0.3288 0.2999
0.3404 0.3404 0.3199
0.3753 0.3520 0.3399
0.4101 0.3636 0.3598
0.4450 0.3752 0.3798
0.4799 0.3868 0.3998
0.5147 0.3984 0.4198
0.5496 0.4099 0.4397
0.5845 0.4215 0.4597
0.6193 0.4331 0.4797
0.6542 0.4447 0.4997
0.1428 0.3058 0.2200
0.1777 0.3173 0.2400
0.2125 0.3289 0.2599
0.2474 0.3405 0.2799
0.2823 0.3521 0.2999
0.3171 0.3637 0.3199
0.3520 0.3753 0.3399
0.3869 0.3869 0.3598
0.4217 0.3985 0.3798
0.4566 0.4100 0.3998
0.4915 0.4216 0.4198
0.5263 0.4332 0.4397
0.5612 0.4448 0.4597
0.5961 0.4564 0.4797
0.6309 0.4680 0.4997
0.6658 0.4796 0.5197
0.1544 0.3406 0.2400
0.1893 0.3522 0.2599
0.2241 0.3638 0.2799
0.2590 0.3754 0.2999
