_examples/_cube_files/LUT3D_scoSAT.cube
# Diego Inácio • 2017
TITLE "3D Simple Color Operator: Color Saturation\Desaturation"
LUT_3D_SIZE 6
0.0018 0.0018 0.0000
0.1064 0.0365 0.0599
0.2110 0.0713 0.1199
0.3156 0.1060 0.1798
0.4201 0.1408 0.2397
0.5247 0.1756 0.2997
0.0365 0.1064 0.0599
0.1411 0.1411 0.1199
0.2457 0.1759 0.1798
0.3503 0.2106 0.2397
0.4549 0.2454 0.2997
0.5595 0.2802 0.3596
0.0713 0.2110 0.1199
0.1759 0.2457 0.1798
0.2805 0.2805 0.2397
0.3851 0.3152 0.2997
0.4897 0.3500 0.3596
0.5943 0.3848 0.4196
0.1060 0.3156 0.1798
0.2106 0.3503 0.2397
0.3152 0.3851 0.2997
0.4198 0.4198 0.3596
0.5244 0.4546 0.4196
0.6290 0.4894 0.4795
0.1408 0.4201 0.2397
0.2454 0.4549 0.2997
0.3500 0.4897 0.3596
0.4546 0.5244 0.4196
0.5592 0.5592 0.4795
0.6638 0.5940 0.5394
0.1756 0.5247 0.2997
0.2802 0.5595 0.3596
0.3848 0.5943 0.4196
0.4894 0.6290 0.4795
0.5940 0.6638 0.5394
0.6986 0.6986 0.5994
0.0617 0.0617 0.0801
0.1663 0.0965 0.1401
0.2709 0.1312 0.2000
0.3755 0.1660 0.2599
0.4801 0.2007 0.3199
0.5847 0.2355 0.3798
0.0965 0.1663 0.1401
0.2011 0.2011 0.2000
0.3057 0.2358 0.2599
0.4103 0.2706 0.3199
0.5148 0.3053 0.3798
0.6194 0.3401 0.4397
0.1312 0.2709 0.2000
0.2358 0.3057 0.2599
0.3404 0.3404 0.3199
0.4450 0.3752 0.3798
0.5496 0.4099 0.4397
0.6542 0.4447 0.4997
0.1660 0.3755 0.2599
0.2706 0.4103 0.3199
0.3752 0.4450 0.3798
0.4798 0.4798 0.4397
0.5844 0.5145 0.4997
0.6890 0.5493 0.5596
0.2007 0.4801 0.3199
0.3053 0.5148 0.3798
0.4099 0.5496 0.4397
0.5145 0.5844 0.4997
0.6191 0.6191 0.5596
0.7237 0.6539 0.6196
0.2355 0.5847 0.3798
0.3401 0.6194 0.4397
0.4447 0.6542 0.4997
0.5493 0.6890 0.5596
0.6539 0.7237 0.6196
0.7585 0.7585 0.6795
0.1216 0.1216 0.1603
0.2262 0.1564 0.2202
0.3308 0.1912 0.2801
0.4354 0.2259 0.3401
0.5400 0.2607 0.4000
0.6446 0.2954 0.4599
0.1564 0.2262 0.2202
0.2610 0.2610 0.2801
0.3656 0.2958 0.3401
0.4702 0.3305 0.4000
0.5748 0.3653 0.4599
0.6794 0.4000 0.5199
0.1912 0.3308 0.2801
0.2958 0.3656 0.3401
0.4004 0.4004 0.4000
0.5049 0.4351 0.4599
0.6095 0.4699 0.5199
0.7141 0.5046 0.5798
0.2259 0.4354 0.3401
0.3305 0.4702 0.4000
0.4351 0.5049 0.4599
0.5397 0.5397 0.5199
0.6443 0.5745 0.5798
0.7489 0.6092 0.6397
0.2607 0.5400 0.4000
0.3653 0.5748 0.4599
0.4699 0.6095 0.5199
0.5745 0.6443 0.5798
0.6791 0.6791 0.6397
0.7837 0.7138 0.6997
0.2954 0.6446 0.4599
0.4000 0.6794 0.5199
0.5046 0.7141 0.5798
0.6092 0.7489 0.6397
0.7138 0.7837 0.6997
0.8184 0.8184 0.7596
0.1816 0.1816 0.2404
0.2862 0.2163 0.3003
0.3908 0.2511 0.3603
0.4954 0.2859 0.4202
0.6000 0.3206 0.4801
0.7046 0.3554 0.5401
0.2163 0.2862 0.3003
0.3209 0.3209 0.3603
0.4255 0.3557 0.4202
0.5301 0.3905 0.4801
0.6347 0.4252 0.5401
0.7393 0.4600 0.6000
0.2511 0.3908 0.3603
0.3557 0.4255 0.4202
0.4603 0.4603 0.4801
0.5649 0.4951 0.5401
0.6695 0.5298 0.6000
0.7741 0.5646 0.6599
0.2859 0.4954 0.4202
0.3905 0.5301 0.4801
0.4951 0.5649 0.5401
0.5996 0.5996 0.6000
0.7042 0.6344 0.6599
0.8088 0.6692 0.7199
0.3206 0.6000 0.4801
0.4252 0.6347 0.5401
0.5298 0.6695 0.6000
0.6344 0.7042 0.6599
0.7390 0.7390 0.7199
0.8436 0.7738 0.7798
0.3554 0.7046 0.5401
0.4600 0.7393 0.6000
0.5646 0.7741 0.6599
0.6692 0.8088 0.7199
0.7738 0.8436 0.7798
0.8784 0.8784 0.8397
0.2415 0.2415 0.3205
0.3461 0.2763 0.3804
0.4507 0.3110 0.4404
0.5553 0.3458 0.5003
0.6599 0.3806 0.5603
0.7645 0.4153 0.6202
0.2763 0.3461 0.3804
0.3809 0.3809 0.4404
0.4855 0.4156 0.5003
0.5901 0.4504 0.5603
0.6947 0.4852 0.6202
0.7993 0.5199 0.6801
0.3110 0.4507 0.4404
0.4156 0.4855 0.5003
0.5202 0.5202 0.5603
0.6248 0.5550 0.6202
0.7294 0.5897 0.6801
0.8340 0.6245 0.7401
0.3458 0.5553 0.5003
0.4504 0.5901 0.5603
0.5550 0.6248 0.6202
0.6596 0.6596 0.6801
0.7642 0.6943 0.7401
0.8688 0.7291 0.8000
0.3806 0.6599 0.5603
0.4852 0.6947 0.6202
0.5897 0.7294 0.6801
0.6943 0.7642 0.7401
0.7989 0.7989 0.8000
0.9035 0.8337 0.8599
0.4153 0.7645 0.6202
0.5199 0.7993 0.6801
0.6245 0.8340 0.7401
0.7291 0.8688 0.8000
0.8337 0.9035 0.8599
0.9383 0.9383 0.9199
0.3014 0.3014 0.4006
0.4060 0.3362 0.4606
0.5106 0.3710 0.5205
0.6152 0.4057 0.5804
0.7198 0.4405 0.6404
0.8244 0.4753 0.7003
0.3362 0.4060 0.4606
0.4408 0.4408 0.5205
0.5454 0.4756 0.5804
0.6500 0.5103 0.6404
0.7546 0.5451 0.7003
0.8592 0.5799 0.7603
0.3710 0.5106 0.5205
0.4756 0.5454 0.5804
0.5802 0.5802 0.6404
0.6848 0.6149 0.7003
0.7894 0.6497 0.7603
0.8940 0.6844 0.8202
0.4057 0.6152 0.5804
0.5103 0.6500 0.6404
0.6149 0.6848 0.7003
0.7195 0.7195 0.7603
0.8241 0.7543 0.8202
0.9287 0.7890 0.8801
0.4405 0.7198 0.6404
0.5451 0.7546 0.7003
0.6497 0.7894 0.7603
0.7543 0.8241 0.8202
0.8589 0.8589 0.8801
0.9635 0.8936 0.9401
0.4753 0.8244 0.7003
0.5799 0.8592 0.7603
0.6844 0.8940 0.8202
0.7890 0.9287 0.8801
0.8936 0.9635 0.9401
0.9982 0.9982 1.0000
