_reference/_cube_files/LUT1D_ccoSINFM.cube
# Diego Inácio • 2017
TITLE "1D Complex Color Operator: Sinusoid with Frequency modulation"
LUT_1D_SIZE 256

0.8580 0.5502 0.2190
0.8529 0.5343 0.1975
0.8470 0.5175 0.1762
0.8403 0.4996 0.1551
0.8327 0.4808 0.1345
0.8243 0.4609 0.1144
0.8150 0.4402 0.0952
0.8046 0.4186 0.0771
0.7933 0.3962 0.0602
0.7810 0.3730 0.0449
0.7676 0.3492 0.0314
0.7530 0.3248 0.0200
0.7373 0.3000 0.0109
0.7204 0.2749 0.0044
0.7023 0.2496 0.0007
0.6829 0.2243 0.0002
0.6624 0.1992 0.0030
0.6405 0.1745 0.0094
0.6174 0.1504 0.0197
0.5931 0.1271 0.0339
0.5676 0.1049 0.0522
0.5410 0.0841 0.0747
0.5132 0.0649 0.1014
0.4844 0.0476 0.1325
0.4547 0.0325 0.1677
0.4242 0.0199 0.2069
0.3930 0.0102 0.2500
0.3613 0.0035 0.2966
0.3293 0.0003 0.3464
0.2972 0.0007 0.3990
0.2652 0.0051 0.4537
0.2335 0.0136 0.5100
0.2025 0.0265 0.5672
0.1724 0.0439 0.6244
0.1436 0.0658 0.6809
0.1164 0.0925 0.7357
0.0911 0.1238 0.7879
0.0682 0.1596 0.8365
0.0479 0.1999 0.8806
0.0307 0.2443 0.9190
0.0170 0.2925 0.9510
0.0071 0.3441 0.9756
0.0014 0.3986 0.9920
0.0001 0.4554 0.9996
0.0037 0.5138 0.9977
0.0123 0.5729 0.9860
0.0261 0.6320 0.9644
0.0453 0.6901 0.9328
0.0700 0.7461 0.8915
0.1001 0.7992 0.8411
0.1356 0.8481 0.7823
0.1763 0.8919 0.7163
0.2219 0.9295 0.6442
0.2719 0.9600 0.5678
0.3260 0.9824 0.4886
0.3834 0.9959 0.4088
0.4435 1.0000 0.3304
0.5055 0.9940 0.2555
0.5683 0.9777 0.1866
0.6309 0.9510 0.1256
0.6924 0.9141 0.0747
0.7514 0.8674 0.0359
0.8068 0.8116 0.0106
0.8575 0.7478 0.0002
0.9021 0.6771 0.0055
0.9396 0.6011 0.0269
0.9688 0.5217 0.0642
0.9889 0.4407 0.1166
0.9989 0.3602 0.1829
0.9983 0.2827 0.2610
0.9867 0.2104 0.3486
0.9638 0.1455 0.4426
0.9298 0.0903 0.5398
0.8851 0.0469 0.6364
0.8304 0.0168 0.7287
0.7667 0.0017 0.8127
0.6953 0.0024 0.8849
0.6180 0.0195 0.9417
0.5365 0.0529 0.9804
0.4530 0.1020 0.9987
0.3699 0.1656 0.9952
0.2896 0.2419 0.9695
0.2147 0.3283 0.9221
0.1476 0.4221 0.8546
0.0907 0.5197 0.7697
0.0461 0.6176 0.6710
0.0158 0.7117 0.5630
0.0012 0.7983 0.4509
0.0033 0.8733 0.3404
0.0227 0.9334 0.2371
0.0590 0.9755 0.1468
0.1117 0.9973 0.0747
0.1791 0.9971 0.0252
0.2593 0.9744 0.0017
0.3494 0.9297 0.0061
0.4464 0.8643 0.0389
0.5464 0.7809 0.0988
0.6455 0.6831 0.1830
0.7395 0.5753 0.2871
0.8243 0.4629 0.4050
0.8960 0.3513 0.5297
0.9510 0.2466 0.6535
0.9863 0.1544 0.7684
0.9999 0.0802 0.8667
0.9905 0.0284 0.9415
0.9578 0.0026 0.9871
0.9030 0.0048 0.9997
0.8279 0.0356 0.9778
0.7360 0.0939 0.9220
0.6313 0.1770 0.8357
0.5190 0.2803 0.7245
0.4047 0.3979 0.5959
0.2945 0.5228 0.4592
0.1946 0.6473 0.3246
0.1106 0.7631 0.2026
0.0477 0.8627 0.1029
0.0101 0.9388 0.0339
0.0004 0.9858 0.0018
0.0200 0.9999 0.0101
0.0684 0.9792 0.0587
0.1433 0.9245 0.1446
0.2408 0.8390 0.2612
0.3553 0.7282 0.3990
0.4798 0.5998 0.5466
0.6065 0.4629 0.6910
0.7272 0.3280 0.8193
0.8338 0.2053 0.9195
0.9185 0.1049 0.9818
0.9753 0.0350 0.9997
0.9993 0.0021 0.9706
0.9884 0.0095 0.8965
0.9424 0.0575 0.7836
0.8639 0.1428 0.6422
0.7581 0.2590 0.4859
0.6323 0.3967 0.3300
0.4955 0.5443 0.1905
0.3582 0.6889 0.0820
0.2310 0.8176 0.0163
0.1241 0.9183 0.0012
0.0467 0.9812 0.0393
0.0056 0.9998 0.1274
0.0048 0.9713 0.2566
0.0454 0.8978 0.4136
0.1247 0.7853 0.5811
0.2367 0.6442 0.7404
0.3723 0.4880 0.8731
0.5199 0.3321 0.9632
0.6668 0.1922 0.9996
0.7995 0.0832 0.9769
0.9056 0.0169 0.8969
0.9748 0.0011 0.7682
1.0000 0.0384 0.6060
0.9778 0.1256 0.4297
0.9095 0.2543 0.2613
0.8009 0.4108 0.1223
0.6620 0.5782 0.0310
0.5061 0.7377 0.0000
0.3486 0.8709 0.0344
0.2057 0.9619 0.1307
0.0925 0.9994 0.2770
0.0212 0.9780 0.4543
0.0003 0.8993 0.6387
0.0329 0.7718 0.8048
0.1163 0.6103 0.9292
0.2424 0.4343 0.9936
0.3978 0.2656 0.9879
0.5655 0.1257 0.9117
0.7268 0.0329 0.7752
0.8628 0.0000 0.5975
0.9574 0.0323 0.4044
0.9988 0.1266 0.2248
0.9810 0.2712 0.0860
0.9053 0.4474 0.0100
0.7799 0.6317 0.0096
0.6194 0.7988 0.0858
0.4432 0.9251 0.2278
0.2733 0.9922 0.4139
0.1312 0.9897 0.6148
0.0358 0.9168 0.7979
0.0001 0.7830 0.9329
0.0298 0.6071 0.9968
0.1220 0.4145 0.9778
0.2653 0.2337 0.8779
0.4412 0.0923 0.7131
0.6259 0.0125 0.5109
0.7942 0.0074 0.3058
0.9222 0.0790 0.1339
0.9913 0.2171 0.0261
0.9907 0.4008 0.0026
0.9194 0.6012 0.0687
0.7867 0.7862 0.2137
0.6113 0.9253 0.4119
0.4185 0.9948 0.6273
0.2370 0.9822 0.8198
0.0945 0.8885 0.9528
0.0133 0.7285 1.0000
0.0068 0.5285 0.9513
0.0772 0.3228 0.8149
0.2145 0.1470 0.6162
0.3978 0.0327 0.3938
0.5984 0.0010 0.1917
0.7839 0.0586 0.0506
0.9238 0.1964 0.0000
0.9944 0.3903 0.0514
0.9829 0.6053 0.1955
0.8901 0.8015 0.4035
0.7307 0.9421 0.6326
0.5309 0.9994 0.8346
0.3250 0.9617 0.9660
0.1487 0.8347 0.9976
0.0335 0.6422 0.9215
0.0008 0.4209 0.7529
0.0575 0.2144 0.5278
0.1945 0.0641 0.2957
0.3879 0.0009 0.1085
0.6028 0.0388 0.0091
0.7995 0.1713 0.0211
0.9408 0.3722 0.1433
0.9993 0.6005 0.3485
0.9627 0.8087 0.5899
0.8368 0.9523 0.8110
0.6450 0.9998 0.9592
0.4240 0.9399 0.9981
0.2171 0.7842 0.9171
0.0657 0.5657 0.7344
0.0011 0.3318 0.4937
0.0373 0.1345 0.2537
0.1683 0.0184 0.0740
0.3682 0.0108 0.0005
0.5964 0.1148 0.0529
0.8052 0.3076 0.2193
0.9503 0.5458 0.4583
0.9999 0.7742 0.7089
0.9423 0.9389 0.9060
0.7887 1.0000 0.9973
0.5713 0.9418 0.9574
0.3375 0.7768 0.7955
0.1388 0.5441 0.5538
0.0202 0.2996 0.2967
0.0095 0.1038 0.0941
0.1102 0.0057 0.0022
0.3008 0.0312 0.0475
0.5380 0.1751 0.2191
0.7673 0.4021 0.4700
0.9347 0.6551 0.7302
0.9998 0.8689 0.9258
0.9460 0.9874 1.0000
0.7848 0.9786 0.9300
0.5541 0.8433 0.7348
0.3093 0.6163 0.4702
0.1105 0.3572 0.2135
0.0076 0.1359 0.0411
0.0272 0.0128 0.0054
0.1659 0.0228 0.1186
0.3897 0.1646 0.3478
0.6425 0.4001 0.6243