_reference/_cube_files/LUT1D_scoGAMMA.cube
# Diego Inácio • 2017
TITLE "1D Simple Color Operator: Gamma"
LUT_1D_SIZE 64

0.0000 0.0000 0.0000
0.0231 0.0413 0.0017
0.0434 0.0704 0.0050
0.0628 0.0961 0.0092
0.0816 0.1200 0.0144
0.0999 0.1424 0.0203
0.1179 0.1639 0.0268
0.1357 0.1845 0.0340
0.1532 0.2044 0.0418
0.1705 0.2238 0.0501
0.1876 0.2427 0.0589
0.2046 0.2612 0.0682
0.2215 0.2793 0.0780
0.2382 0.2970 0.0882
0.2548 0.3144 0.0989
0.2713 0.3316 0.1099
0.2877 0.3484 0.1214
0.3040 0.3651 0.1333
0.3202 0.3815 0.1455
0.3363 0.3977 0.1582
0.3524 0.4137 0.1711
0.3683 0.4295 0.1845
0.3843 0.4452 0.1982
0.4001 0.4607 0.2122
0.4159 0.4760 0.2266
0.4316 0.4912 0.2412
0.4473 0.5062 0.2563
0.4629 0.5211 0.2716
0.4784 0.5359 0.2872
0.4940 0.5506 0.3031
0.5094 0.5651 0.3194
0.5248 0.5796 0.3359
0.5402 0.5939 0.3527
0.5555 0.6081 0.3698
0.5708 0.6222 0.3872
0.5860 0.6363 0.4048
0.6013 0.6502 0.4228
0.6164 0.6641 0.4410
0.6315 0.6778 0.4594
0.6466 0.6915 0.4782
0.6617 0.7051 0.4972
0.6767 0.7186 0.5164
0.6917 0.7321 0.5359
0.7067 0.7454 0.5557
0.7216 0.7587 0.5757
0.7365 0.7720 0.5959
0.7513 0.7851 0.6164
0.7662 0.7982 0.6372
0.7810 0.8112 0.6581
0.7958 0.8242 0.6793
0.8105 0.8371 0.7008
0.8252 0.8500 0.7225
0.8399 0.8628 0.7444
0.8546 0.8755 0.7665
0.8692 0.8882 0.7889
0.8839 0.9008 0.8115
0.8985 0.9134 0.8343
0.9130 0.9259 0.8573
0.9276 0.9384 0.8805
0.9421 0.9508 0.9040
0.9566 0.9632 0.9277
0.9711 0.9755 0.9516
0.9856 0.9878 0.9757
1.0000 1.0000 1.0000