_reference/_cube_files/LUT1D_scoBALANCE.cube
# Diego Inácio • 2017
TITLE "1D Simple Color Operator: Color Balance"
LUT_1D_SIZE 64

0.0000 0.0000 0.0000
0.0144 0.0102 0.0244
0.0289 0.0205 0.0488
0.0433 0.0307 0.0733
0.0577 0.0410 0.0977
0.0722 0.0512 0.1221
0.0866 0.0614 0.1465
0.1010 0.0717 0.1709
0.1154 0.0819 0.1954
0.1299 0.0922 0.2198
0.1443 0.1024 0.2442
0.1587 0.1126 0.2686
0.1732 0.1229 0.2930
0.1876 0.1331 0.3175
0.2020 0.1434 0.3419
0.2165 0.1536 0.3663
0.2309 0.1639 0.3907
0.2453 0.1741 0.4151
0.2597 0.1843 0.4396
0.2742 0.1946 0.4640
0.2886 0.2048 0.4884
0.3030 0.2151 0.5128
0.3175 0.2253 0.5372
0.3319 0.2355 0.5617
0.3463 0.2458 0.5861
0.3608 0.2560 0.6105
0.3752 0.2663 0.6349
0.3896 0.2765 0.6593
0.4040 0.2867 0.6838
0.4185 0.2970 0.7082
0.4329 0.3072 0.7326
0.4473 0.3175 0.7570
0.4618 0.3277 0.7814
0.4762 0.3379 0.8059
0.4906 0.3482 0.8303
0.5051 0.3584 0.8547
0.5195 0.3687 0.8791
0.5339 0.3789 0.9035
0.5483 0.3891 0.9280
0.5628 0.3994 0.9524
0.5772 0.4096 0.9768
0.5916 0.4199 1.0000
0.6061 0.4301 1.0000
0.6205 0.4403 1.0000
0.6349 0.4506 1.0000
0.6494 0.4608 1.0000
0.6638 0.4711 1.0000
0.6782 0.4813 1.0000
0.6926 0.4916 1.0000
0.7071 0.5018 1.0000
0.7215 0.5120 1.0000
0.7359 0.5223 1.0000
0.7504 0.5325 1.0000
0.7648 0.5428 1.0000
0.7792 0.5530 1.0000
0.7937 0.5632 1.0000
0.8081 0.5735 1.0000
0.8225 0.5837 1.0000
0.8369 0.5940 1.0000
0.8514 0.6042 1.0000
0.8658 0.6144 1.0000
0.8802 0.6247 1.0000
0.8947 0.6349 1.0000
0.9091 0.6452 1.0000