_reference/_cube_files/LUT3D_scoGAIN.cube
# Diego Inácio • 2017
TITLE "3D Simple Color Operator: Color Gain"
LUT_3D_SIZE 16
0.0000 0.0000 0.0000
0.0580 0.0000 0.0000
0.1160 0.0000 0.0000
0.1740 0.0000 0.0000
0.2320 0.0000 0.0000
0.2900 0.0000 0.0000
0.3480 0.0000 0.0000
0.4060 0.0000 0.0000
0.4640 0.0000 0.0000
0.5220 0.0000 0.0000
0.5800 0.0000 0.0000
0.6380 0.0000 0.0000
0.6960 0.0000 0.0000
0.7540 0.0000 0.0000
0.8120 0.0000 0.0000
0.8700 0.0000 0.0000
0.0000 0.0367 0.0000
0.0580 0.0367 0.0000
0.1160 0.0367 0.0000
0.1740 0.0367 0.0000
0.2320 0.0367 0.0000
0.2900 0.0367 0.0000
0.3480 0.0367 0.0000
0.4060 0.0367 0.0000
0.4640 0.0367 0.0000
0.5220 0.0367 0.0000
0.5800 0.0367 0.0000
0.6380 0.0367 0.0000
0.6960 0.0367 0.0000
0.7540 0.0367 0.0000
0.8120 0.0367 0.0000
0.8700 0.0367 0.0000
0.0000 0.0733 0.0000
0.0580 0.0733 0.0000
0.1160 0.0733 0.0000
0.1740 0.0733 0.0000
0.2320 0.0733 0.0000
0.2900 0.0733 0.0000
0.3480 0.0733 0.0000
0.4060 0.0733 0.0000
0.4640 0.0733 0.0000
0.5220 0.0733 0.0000
0.5800 0.0733 0.0000
0.6380 0.0733 0.0000
0.6960 0.0733 0.0000
0.7540 0.0733 0.0000
0.8120 0.0733 0.0000
0.8700 0.0733 0.0000
0.0000 0.1100 0.0000
0.0580 0.1100 0.0000
0.1160 0.1100 0.0000
0.1740 0.1100 0.0000
0.2320 0.1100 0.0000
0.2900 0.1100 0.0000
0.3480 0.1100 0.0000
0.4060 0.1100 0.0000
0.4640 0.1100 0.0000
0.5220 0.1100 0.0000
0.5800 0.1100 0.0000
0.6380 0.1100 0.0000
0.6960 0.1100 0.0000
0.7540 0.1100 0.0000
0.8120 0.1100 0.0000
0.8700 0.1100 0.0000
0.0000 0.1467 0.0000
0.0580 0.1467 0.0000
0.1160 0.1467 0.0000
0.1740 0.1467 0.0000
0.2320 0.1467 0.0000
0.2900 0.1467 0.0000
0.3480 0.1467 0.0000
0.4060 0.1467 0.0000
0.4640 0.1467 0.0000
0.5220 0.1467 0.0000
0.5800 0.1467 0.0000
0.6380 0.1467 0.0000
0.6960 0.1467 0.0000
0.7540 0.1467 0.0000
0.8120 0.1467 0.0000
0.8700 0.1467 0.0000
0.0000 0.1833 0.0000
0.0580 0.1833 0.0000
0.1160 0.1833 0.0000
0.1740 0.1833 0.0000
0.2320 0.1833 0.0000
0.2900 0.1833 0.0000
0.3480 0.1833 0.0000
0.4060 0.1833 0.0000
0.4640 0.1833 0.0000
0.5220 0.1833 0.0000
0.5800 0.1833 0.0000
0.6380 0.1833 0.0000
0.6960 0.1833 0.0000
0.7540 0.1833 0.0000
0.8120 0.1833 0.0000
0.8700 0.1833 0.0000
0.0000 0.2200 0.0000
0.0580 0.2200 0.0000
0.1160 0.2200 0.0000
0.1740 0.2200 0.0000
0.2320 0.2200 0.0000
0.2900 0.2200 0.0000
0.3480 0.2200 0.0000
0.4060 0.2200 0.0000
0.4640 0.2200 0.0000
0.5220 0.2200 0.0000
0.5800 0.2200 0.0000
0.6380 0.2200 0.0000
0.6960 0.2200 0.0000
0.7540 0.2200 0.0000
0.8120 0.2200 0.0000
0.8700 0.2200 0.0000
0.0000 0.2567 0.0000
0.0580 0.2567 0.0000
0.1160 0.2567 0.0000
0.1740 0.2567 0.0000
0.2320 0.2567 0.0000
0.2900 0.2567 0.0000
0.3480 0.2567 0.0000
0.4060 0.2567 0.0000
0.4640 0.2567 0.0000
0.5220 0.2567 0.0000
0.5800 0.2567 0.0000
0.6380 0.2567 0.0000
0.6960 0.2567 0.0000
0.7540 0.2567 0.0000
0.8120 0.2567 0.0000
0.8700 0.2567 0.0000
0.0000 0.2933 0.0000
0.0580 0.2933 0.0000
0.1160 0.2933 0.0000
0.1740 0.2933 0.0000
0.2320 0.2933 0.0000
0.2900 0.2933 0.0000
0.3480 0.2933 0.0000
0.4060 0.2933 0.0000
0.4640 0.2933 0.0000
0.5220 0.2933 0.0000
0.5800 0.2933 0.0000
0.6380 0.2933 0.0000
0.6960 0.2933 0.0000
0.7540 0.2933 0.0000
0.8120 0.2933 0.0000
0.8700 0.2933 0.0000
0.0000 0.3300 0.0000
0.0580 0.3300 0.0000
0.1160 0.3300 0.0000
0.1740 0.3300 0.0000
0.2320 0.3300 0.0000
0.2900 0.3300 0.0000
0.3480 0.3300 0.0000
0.4060 0.3300 0.0000
0.4640 0.3300 0.0000
0.5220 0.3300 0.0000
0.5800 0.3300 0.0000
0.6380 0.3300 0.0000
0.6960 0.3300 0.0000
0.7540 0.3300 0.0000
0.8120 0.3300 0.0000
0.8700 0.3300 0.0000
0.0000 0.3667 0.0000
0.0580 0.3667 0.0000
0.1160 0.3667 0.0000
0.1740 0.3667 0.0000
0.2320 0.3667 0.0000
0.2900 0.3667 0.0000
0.3480 0.3667 0.0000
0.4060 0.3667 0.0000
0.4640 0.3667 0.0000
0.5220 0.3667 0.0000
0.5800 0.3667 0.0000
0.6380 0.3667 0.0000
0.6960 0.3667 0.0000
0.7540 0.3667 0.0000
0.8120 0.3667 0.0000
0.8700 0.3667 0.0000
0.0000 0.4033 0.0000
0.0580 0.4033 0.0000
0.1160 0.4033 0.0000
0.1740 0.4033 0.0000
0.2320 0.4033 0.0000
0.2900 0.4033 0.0000
0.3480 0.4033 0.0000
0.4060 0.4033 0.0000
0.4640 0.4033 0.0000
0.5220 0.4033 0.0000
0.5800 0.4033 0.0000
0.6380 0.4033 0.0000
0.6960 0.4033 0.0000
0.7540 0.4033 0.0000
0.8120 0.4033 0.0000
0.8700 0.4033 0.0000
0.0000 0.4400 0.0000
0.0580 0.4400 0.0000
0.1160 0.4400 0.0000
0.1740 0.4400 0.0000
0.2320 0.4400 0.0000
0.2900 0.4400 0.0000
0.3480 0.4400 0.0000
0.4060 0.4400 0.0000
0.4640 0.4400 0.0000
0.5220 0.4400 0.0000
0.5800 0.4400 0.0000
0.6380 0.4400 0.0000
0.6960 0.4400 0.0000
0.7540 0.4400 0.0000
0.8120 0.4400 0.0000
0.8700 0.4400 0.0000
0.0000 0.4767 0.0000
0.0580 0.4767 0.0000
0.1160 0.4767 0.0000
0.1740 0.4767 0.0000
0.2320 0.4767 0.0000
0.2900 0.4767 0.0000
0.3480 0.4767 0.0000
0.4060 0.4767 0.0000
0.4640 0.4767 0.0000
0.5220 0.4767 0.0000
0.5800 0.4767 0.0000
0.6380 0.4767 0.0000
0.6960 0.4767 0.0000
0.7540 0.4767 0.0000
0.8120 0.4767 0.0000
0.8700 0.4767 0.0000
0.0000 0.5133 0.0000
0.0580 0.5133 0.0000
0.1160 0.5133 0.0000
0.1740 0.5133 0.0000
0.2320 0.5133 0.0000
0.2900 0.5133 0.0000
0.3480 0.5133 0.0000
0.4060 0.5133 0.0000
0.4640 0.5133 0.0000
0.5220 0.5133 0.0000
0.5800 0.5133 0.0000
0.6380 0.5133 0.0000
0.6960 0.5133 0.0000
0.7540 0.5133 0.0000
0.8120 0.5133 0.0000
0.8700 0.5133 0.0000
0.0000 0.5500 0.0000
0.0580 0.5500 0.0000
0.1160 0.5500 0.0000
0.1740 0.5500 0.0000
0.2320 0.5500 0.0000
0.2900 0.5500 0.0000
0.3480 0.5500 0.0000
0.4060 0.5500 0.0000
0.4640 0.5500 0.0000
0.5220 0.5500 0.0000
0.5800 0.5500 0.0000
0.6380 0.5500 0.0000
0.6960 0.5500 0.0000
0.7540 0.5500 0.0000
0.8120 0.5500 0.0000
0.8700 0.5500 0.0000
0.0000 0.0000 0.0427
0.0580 0.0000 0.0427
0.1160 0.0000 0.0427
0.1740 0.0000 0.0427
0.2320 0.0000 0.0427
0.2900 0.0000 0.0427
0.3480 0.0000 0.0427
0.4060 0.0000 0.0427
0.4640 0.0000 0.0427
0.5220 0.0000 0.0427
0.5800 0.0000 0.0427
0.6380 0.0000 0.0427
0.6960 0.0000 0.0427
0.7540 0.0000 0.0427
0.8120 0.0000 0.0427
0.8700 0.0000 0.0427
0.0000 0.0367 0.0427
0.0580 0.0367 0.0427
0.1160 0.0367 0.0427
0.1740 0.0367 0.0427
0.2320 0.0367 0.0427
0.2900 0.0367 0.0427
0.3480 0.0367 0.0427
0.4060 0.0367 0.0427
0.4640 0.0367 0.0427
0.5220 0.0367 0.0427
0.5800 0.0367 0.0427
0.6380 0.0367 0.0427
0.6960 0.0367 0.0427
0.7540 0.0367 0.0427
0.8120 0.0367 0.0427
0.8700 0.0367 0.0427
0.0000 0.0733 0.0427
0.0580 0.0733 0.0427
0.1160 0.0733 0.0427
0.1740 0.0733 0.0427
0.2320 0.0733 0.0427
0.2900 0.0733 0.0427
0.3480 0.0733 0.0427
0.4060 0.0733 0.0427
0.4640 0.0733 0.0427
0.5220 0.0733 0.0427
0.5800 0.0733 0.0427
0.6380 0.0733 0.0427
0.6960 0.0733 0.0427
0.7540 0.0733 0.0427
0.8120 0.0733 0.0427
0.8700 0.0733 0.0427
0.0000 0.1100 0.0427
0.0580 0.1100 0.0427
0.1160 0.1100 0.0427
0.1740 0.1100 0.0427
0.2320 0.1100 0.0427
0.2900 0.1100 0.0427
0.3480 0.1100 0.0427
0.4060 0.1100 0.0427
0.4640 0.1100 0.0427
0.5220 0.1100 0.0427
0.5800 0.1100 0.0427
0.6380 0.1100 0.0427
0.6960 0.1100 0.0427
0.7540 0.1100 0.0427
0.8120 0.1100 0.0427
0.8700 0.1100 0.0427
0.0000 0.1467 0.0427
0.0580 0.1467 0.0427
0.1160 0.1467 0.0427
0.1740 0.1467 0.0427
0.2320 0.1467 0.0427
0.2900 0.1467 0.0427
0.3480 0.1467 0.0427
0.4060 0.1467 0.0427
0.4640 0.1467 0.0427
0.5220 0.1467 0.0427
0.5800 0.1467 0.0427
0.6380 0.1467 0.0427
0.6960 0.1467 0.0427
0.7540 0.1467 0.0427
0.8120 0.1467 0.0427
0.8700 0.1467 0.0427
0.0000 0.1833 0.0427
0.0580 0.1833 0.0427
0.1160 0.1833 0.0427
0.1740 0.1833 0.0427
0.2320 0.1833 0.0427
0.2900 0.1833 0.0427
0.3480 0.1833 0.0427
0.4060 0.1833 0.0427
0.4640 0.1833 0.0427
0.5220 0.1833 0.0427
0.5800 0.1833 0.0427
0.6380 0.1833 0.0427
0.6960 0.1833 0.0427
0.7540 0.1833 0.0427
0.8120 0.1833 0.0427
0.8700 0.1833 0.0427
0.0000 0.2200 0.0427
0.0580 0.2200 0.0427
0.1160 0.2200 0.0427
0.1740 0.2200 0.0427
0.2320 0.2200 0.0427
0.2900 0.2200 0.0427
0.3480 0.2200 0.0427
0.4060 0.2200 0.0427
0.4640 0.2200 0.0427
0.5220 0.2200 0.0427
0.5800 0.2200 0.0427
0.6380 0.2200 0.0427
0.6960 0.2200 0.0427
0.7540 0.2200 0.0427
0.8120 0.2200 0.0427
0.8700 0.2200 0.0427
0.0000 0.2567 0.0427
0.0580 0.2567 0.0427
0.1160 0.2567 0.0427
0.1740 0.2567 0.0427
0.2320 0.2567 0.0427
0.2900 0.2567 0.0427
0.3480 0.2567 0.0427
0.4060 0.2567 0.0427
0.4640 0.2567 0.0427
0.5220 0.2567 0.0427
0.5800 0.2567 0.0427
0.6380 0.2567 0.0427
0.6960 0.2567 0.0427
0.7540 0.2567 0.0427
0.8120 0.2567 0.0427
0.8700 0.2567 0.0427
0.0000 0.2933 0.0427
0.0580 0.2933 0.0427
0.1160 0.2933 0.0427
0.1740 0.2933 0.0427
0.2320 0.2933 0.0427
0.2900 0.2933 0.0427
0.3480 0.2933 0.0427
0.4060 0.2933 0.0427
0.4640 0.2933 0.0427
0.5220 0.2933 0.0427
0.5800 0.2933 0.0427
0.6380 0.2933 0.0427
0.6960 0.2933 0.0427
0.7540 0.2933 0.0427
0.8120 0.2933 0.0427
0.8700 0.2933 0.0427
0.0000 0.3300 0.0427
0.0580 0.3300 0.0427
0.1160 0.3300 0.0427
0.1740 0.3300 0.0427
0.2320 0.3300 0.0427
0.2900 0.3300 0.0427
0.3480 0.3300 0.0427
0.4060 0.3300 0.0427
0.4640 0.3300 0.0427
0.5220 0.3300 0.0427
0.5800 0.3300 0.0427
0.6380 0.3300 0.0427
0.6960 0.3300 0.0427
0.7540 0.3300 0.0427
0.8120 0.3300 0.0427
0.8700 0.3300 0.0427
0.0000 0.3667 0.0427
0.0580 0.3667 0.0427
0.1160 0.3667 0.0427
0.1740 0.3667 0.0427
0.2320 0.3667 0.0427
0.2900 0.3667 0.0427
0.3480 0.3667 0.0427
0.4060 0.3667 0.0427
0.4640 0.3667 0.0427
0.5220 0.3667 0.0427
0.5800 0.3667 0.0427
0.6380 0.3667 0.0427
0.6960 0.3667 0.0427
0.7540 0.3667 0.0427
0.8120 0.3667 0.0427
0.8700 0.3667 0.0427
0.0000 0.4033 0.0427
0.0580 0.4033 0.0427
0.1160 0.4033 0.0427
0.1740 0.4033 0.0427
0.2320 0.4033 0.0427
0.2900 0.4033 0.0427
0.3480 0.4033 0.0427
0.4060 0.4033 0.0427
0.4640 0.4033 0.0427
0.5220 0.4033 0.0427
0.5800 0.4033 0.0427
0.6380 0.4033 0.0427
0.6960 0.4033 0.0427
0.7540 0.4033 0.0427
0.8120 0.4033 0.0427
0.8700 0.4033 0.0427
0.0000 0.4400 0.0427
0.0580 0.4400 0.0427
0.1160 0.4400 0.0427
0.1740 0.4400 0.0427
0.2320 0.4400 0.0427
0.2900 0.4400 0.0427
0.3480 0.4400 0.0427
0.4060 0.4400 0.0427
0.4640 0.4400 0.0427
0.5220 0.4400 0.0427
0.5800 0.4400 0.0427
0.6380 0.4400 0.0427
0.6960 0.4400 0.0427
0.7540 0.4400 0.0427
0.8120 0.4400 0.0427
0.8700 0.4400 0.0427
0.0000 0.4767 0.0427
0.0580 0.4767 0.0427
0.1160 0.4767 0.0427
0.1740 0.4767 0.0427
0.2320 0.4767 0.0427
0.2900 0.4767 0.0427
0.3480 0.4767 0.0427
0.4060 0.4767 0.0427
0.4640 0.4767 0.0427
0.5220 0.4767 0.0427
0.5800 0.4767 0.0427
0.6380 0.4767 0.0427
0.6960 0.4767 0.0427
0.7540 0.4767 0.0427
0.8120 0.4767 0.0427
0.8700 0.4767 0.0427
0.0000 0.5133 0.0427
0.0580 0.5133 0.0427
0.1160 0.5133 0.0427
0.1740 0.5133 0.0427
0.2320 0.5133 0.0427
0.2900 0.5133 0.0427
0.3480 0.5133 0.0427
0.4060 0.5133 0.0427
0.4640 0.5133 0.0427
0.5220 0.5133 0.0427
0.5800 0.5133 0.0427
0.6380 0.5133 0.0427
0.6960 0.5133 0.0427
0.7540 0.5133 0.0427
0.8120 0.5133 0.0427
0.8700 0.5133 0.0427
0.0000 0.5500 0.0427
0.0580 0.5500 0.0427
0.1160 0.5500 0.0427
0.1740 0.5500 0.0427
0.2320 0.5500 0.0427
0.2900 0.5500 0.0427
0.3480 0.5500 0.0427
0.4060 0.5500 0.0427
0.4640 0.5500 0.0427
0.5220 0.5500 0.0427
0.5800 0.5500 0.0427
0.6380 0.5500 0.0427
0.6960 0.5500 0.0427
0.7540 0.5500 0.0427
0.8120 0.5500 0.0427
0.8700 0.5500 0.0427
0.0000 0.0000 0.0853
0.0580 0.0000 0.0853
0.1160 0.0000 0.0853
0.1740 0.0000 0.0853
0.2320 0.0000 0.0853
0.2900 0.0000 0.0853
0.3480 0.0000 0.0853
0.4060 0.0000 0.0853
0.4640 0.0000 0.0853
0.5220 0.0000 0.0853
0.5800 0.0000 0.0853
0.6380 0.0000 0.0853
0.6960 0.0000 0.0853
0.7540 0.0000 0.0853
0.8120 0.0000 0.0853
0.8700 0.0000 0.0853
0.0000 0.0367 0.0853
0.0580 0.0367 0.0853
0.1160 0.0367 0.0853
0.1740 0.0367 0.0853
0.2320 0.0367 0.0853
0.2900 0.0367 0.0853
0.3480 0.0367 0.0853
0.4060 0.0367 0.0853
0.4640 0.0367 0.0853
0.5220 0.0367 0.0853
0.5800 0.0367 0.0853
0.6380 0.0367 0.0853
0.6960 0.0367 0.0853
0.7540 0.0367 0.0853
0.8120 0.0367 0.0853
0.8700 0.0367 0.0853
0.0000 0.0733 0.0853
0.0580 0.0733 0.0853
0.1160 0.0733 0.0853
0.1740 0.0733 0.0853
0.2320 0.0733 0.0853
0.2900 0.0733 0.0853
0.3480 0.0733 0.0853
0.4060 0.0733 0.0853
0.4640 0.0733 0.0853
0.5220 0.0733 0.0853
0.5800 0.0733 0.0853
0.6380 0.0733 0.0853
0.6960 0.0733 0.0853
0.7540 0.0733 0.0853
0.8120 0.0733 0.0853
0.8700 0.0733 0.0853
0.0000 0.1100 0.0853
0.0580 0.1100 0.0853
0.1160 0.1100 0.0853
0.1740 0.1100 0.0853
0.2320 0.1100 0.0853
0.2900 0.1100 0.0853
0.3480 0.1100 0.0853
0.4060 0.1100 0.0853
0.4640 0.1100 0.0853
0.5220 0.1100 0.0853
0.5800 0.1100 0.0853
0.6380 0.1100 0.0853
0.6960 0.1100 0.0853
0.7540 0.1100 0.0853
0.8120 0.1100 0.0853
0.8700 0.1100 0.0853
0.0000 0.1467 0.0853
0.0580 0.1467 0.0853
0.1160 0.1467 0.0853
0.1740 0.1467 0.0853
0.2320 0.1467 0.0853
0.2900 0.1467 0.0853
0.3480 0.1467 0.0853
0.4060 0.1467 0.0853
0.4640 0.1467 0.0853
0.5220 0.1467 0.0853
0.5800 0.1467 0.0853
0.6380 0.1467 0.0853
0.6960 0.1467 0.0853
0.7540 0.1467 0.0853
0.8120 0.1467 0.0853
0.8700 0.1467 0.0853
0.0000 0.1833 0.0853
0.0580 0.1833 0.0853
0.1160 0.1833 0.0853
0.1740 0.1833 0.0853
0.2320 0.1833 0.0853
0.2900 0.1833 0.0853
0.3480 0.1833 0.0853
0.4060 0.1833 0.0853
0.4640 0.1833 0.0853
0.5220 0.1833 0.0853
0.5800 0.1833 0.0853
0.6380 0.1833 0.0853
0.6960 0.1833 0.0853
0.7540 0.1833 0.0853
0.8120 0.1833 0.0853
0.8700 0.1833 0.0853
0.0000 0.2200 0.0853
0.0580 0.2200 0.0853
0.1160 0.2200 0.0853
0.1740 0.2200 0.0853
0.2320 0.2200 0.0853
0.2900 0.2200 0.0853
0.3480 0.2200 0.0853
0.4060 0.2200 0.0853
0.4640 0.2200 0.0853
0.5220 0.2200 0.0853
0.5800 0.2200 0.0853
0.6380 0.2200 0.0853
0.6960 0.2200 0.0853
0.7540 0.2200 0.0853
0.8120 0.2200 0.0853
0.8700 0.2200 0.0853
0.0000 0.2567 0.0853
0.0580 0.2567 0.0853
0.1160 0.2567 0.0853
0.1740 0.2567 0.0853
0.2320 0.2567 0.0853
0.2900 0.2567 0.0853
0.3480 0.2567 0.0853
0.4060 0.2567 0.0853
0.4640 0.2567 0.0853
0.5220 0.2567 0.0853
0.5800 0.2567 0.0853
0.6380 0.2567 0.0853
0.6960 0.2567 0.0853
0.7540 0.2567 0.0853
0.8120 0.2567 0.0853
0.8700 0.2567 0.0853
0.0000 0.2933 0.0853
0.0580 0.2933 0.0853
0.1160 0.2933 0.0853
0.1740 0.2933 0.0853
0.2320 0.2933 0.0853
0.2900 0.2933 0.0853
0.3480 0.2933 0.0853
0.4060 0.2933 0.0853
0.4640 0.2933 0.0853
0.5220 0.2933 0.0853
0.5800 0.2933 0.0853
0.6380 0.2933 0.0853
0.6960 0.2933 0.0853
0.7540 0.2933 0.0853
0.8120 0.2933 0.0853
0.8700 0.2933 0.0853
0.0000 0.3300 0.0853
0.0580 0.3300 0.0853
0.1160 0.3300 0.0853
0.1740 0.3300 0.0853
0.2320 0.3300 0.0853
0.2900 0.3300 0.0853
0.3480 0.3300 0.0853
0.4060 0.3300 0.0853
0.4640 0.3300 0.0853
0.5220 0.3300 0.0853
0.5800 0.3300 0.0853
0.6380 0.3300 0.0853
0.6960 0.3300 0.0853
0.7540 0.3300 0.0853
0.8120 0.3300 0.0853
0.8700 0.3300 0.0853
0.0000 0.3667 0.0853
0.0580 0.3667 0.0853
0.1160 0.3667 0.0853
0.1740 0.3667 0.0853
0.2320 0.3667 0.0853
0.2900 0.3667 0.0853
0.3480 0.3667 0.0853
0.4060 0.3667 0.0853
0.4640 0.3667 0.0853
0.5220 0.3667 0.0853
0.5800 0.3667 0.0853
0.6380 0.3667 0.0853
0.6960 0.3667 0.0853
0.7540 0.3667 0.0853
0.8120 0.3667 0.0853
0.8700 0.3667 0.0853
0.0000 0.4033 0.0853
0.0580 0.4033 0.0853
0.1160 0.4033 0.0853
0.1740 0.4033 0.0853
0.2320 0.4033 0.0853
0.2900 0.4033 0.0853
0.3480 0.4033 0.0853
0.4060 0.4033 0.0853
0.4640 0.4033 0.0853
0.5220 0.4033 0.0853
0.5800 0.4033 0.0853
0.6380 0.4033 0.0853
0.6960 0.4033 0.0853
0.7540 0.4033 0.0853
0.8120 0.4033 0.0853
0.8700 0.4033 0.0853
0.0000 0.4400 0.0853
0.0580 0.4400 0.0853
0.1160 0.4400 0.0853
0.1740 0.4400 0.0853
0.2320 0.4400 0.0853
0.2900 0.4400 0.0853
0.3480 0.4400 0.0853
0.4060 0.4400 0.0853
0.4640 0.4400 0.0853
0.5220 0.4400 0.0853
0.5800 0.4400 0.0853
0.6380 0.4400 0.0853
0.6960 0.4400 0.0853
0.7540 0.4400 0.0853
0.8120 0.4400 0.0853
0.8700 0.4400 0.0853
0.0000 0.4767 0.0853
0.0580 0.4767 0.0853
0.1160 0.4767 0.0853
0.1740 0.4767 0.0853
0.2320 0.4767 0.0853
0.2900 0.4767 0.0853
0.3480 0.4767 0.0853
0.4060 0.4767 0.0853
0.4640 0.4767 0.0853
0.5220 0.4767 0.0853
0.5800 0.4767 0.0853
0.6380 0.4767 0.0853
0.6960 0.4767 0.0853
0.7540 0.4767 0.0853
0.8120 0.4767 0.0853
0.8700 0.4767 0.0853
0.0000 0.5133 0.0853
0.0580 0.5133 0.0853
0.1160 0.5133 0.0853
0.1740 0.5133 0.0853
0.2320 0.5133 0.0853
0.2900 0.5133 0.0853
0.3480 0.5133 0.0853
0.4060 0.5133 0.0853
0.4640 0.5133 0.0853
0.5220 0.5133 0.0853
0.5800 0.5133 0.0853
0.6380 0.5133 0.0853
0.6960 0.5133 0.0853
0.7540 0.5133 0.0853
0.8120 0.5133 0.0853
0.8700 0.5133 0.0853
0.0000 0.5500 0.0853
0.0580 0.5500 0.0853
0.1160 0.5500 0.0853
0.1740 0.5500 0.0853
0.2320 0.5500 0.0853
0.2900 0.5500 0.0853
0.3480 0.5500 0.0853
0.4060 0.5500 0.0853
0.4640 0.5500 0.0853
0.5220 0.5500 0.0853
0.5800 0.5500 0.0853
0.6380 0.5500 0.0853
0.6960 0.5500 0.0853
0.7540 0.5500 0.0853
0.8120 0.5500 0.0853
0.8700 0.5500 0.0853
0.0000 0.0000 0.1280
0.0580 0.0000 0.1280
0.1160 0.0000 0.1280
0.1740 0.0000 0.1280
0.2320 0.0000 0.1280
0.2900 0.0000 0.1280
0.3480 0.0000 0.1280
0.4060 0.0000 0.1280
0.4640 0.0000 0.1280
0.5220 0.0000 0.1280
0.5800 0.0000 0.1280
0.6380 0.0000 0.1280
0.6960 0.0000 0.1280
0.7540 0.0000 0.1280
0.8120 0.0000 0.1280
0.8700 0.0000 0.1280
0.0000 0.0367 0.1280
0.0580 0.0367 0.1280
0.1160 0.0367 0.1280
0.1740 0.0367 0.1280
0.2320 0.0367 0.1280
0.2900 0.0367 0.1280
0.3480 0.0367 0.1280
0.4060 0.0367 0.1280
0.4640 0.0367 0.1280
0.5220 0.0367 0.1280
0.5800 0.0367 0.1280
0.6380 0.0367 0.1280
0.6960 0.0367 0.1280
0.7540 0.0367 0.1280
0.8120 0.0367 0.1280
0.8700 0.0367 0.1280
0.0000 0.0733 0.1280
0.0580 0.0733 0.1280
0.1160 0.0733 0.1280
0.1740 0.0733 0.1280
0.2320 0.0733 0.1280
0.2900 0.0733 0.1280
0.3480 0.0733 0.1280
0.4060 0.0733 0.1280
0.4640 0.0733 0.1280
0.5220 0.0733 0.1280
0.5800 0.0733 0.1280
0.6380 0.0733 0.1280
0.6960 0.0733 0.1280
0.7540 0.0733 0.1280
0.8120 0.0733 0.1280
0.8700 0.0733 0.1280
0.0000 0.1100 0.1280
0.0580 0.1100 0.1280
0.1160 0.1100 0.1280
0.1740 0.1100 0.1280
0.2320 0.1100 0.1280
0.2900 0.1100 0.1280
0.3480 0.1100 0.1280
0.4060 0.1100 0.1280
0.4640 0.1100 0.1280
0.5220 0.1100 0.1280
0.5800 0.1100 0.1280
0.6380 0.1100 0.1280
0.6960 0.1100 0.1280
0.7540 0.1100 0.1280
0.8120 0.1100 0.1280
0.8700 0.1100 0.1280
0.0000 0.1467 0.1280
0.0580 0.1467 0.1280
0.1160 0.1467 0.1280
0.1740 0.1467 0.1280
0.2320 0.1467 0.1280
0.2900 0.1467 0.1280
0.3480 0.1467 0.1280
0.4060 0.1467 0.1280
0.4640 0.1467 0.1280
0.5220 0.1467 0.1280
0.5800 0.1467 0.1280
0.6380 0.1467 0.1280
0.6960 0.1467 0.1280
0.7540 0.1467 0.1280
0.8120 0.1467 0.1280
0.8700 0.1467 0.1280
0.0000 0.1833 0.1280
0.0580 0.1833 0.1280
0.1160 0.1833 0.1280
0.1740 0.1833 0.1280
0.2320 0.1833 0.1280
0.2900 0.1833 0.1280
0.3480 0.1833 0.1280
0.4060 0.1833 0.1280
0.4640 0.1833 0.1280
0.5220 0.1833 0.1280
0.5800 0.1833 0.1280
0.6380 0.1833 0.1280
0.6960 0.1833 0.1280
0.7540 0.1833 0.1280
0.8120 0.1833 0.1280
0.8700 0.1833 0.1280
0.0000 0.2200 0.1280
0.0580 0.2200 0.1280
0.1160 0.2200 0.1280
0.1740 0.2200 0.1280
0.2320 0.2200 0.1280
0.2900 0.2200 0.1280
0.3480 0.2200 0.1280
0.4060 0.2200 0.1280
0.4640 0.2200 0.1280
0.5220 0.2200 0.1280
0.5800 0.2200 0.1280
0.6380 0.2200 0.1280
0.6960 0.2200 0.1280
0.7540 0.2200 0.1280
0.8120 0.2200 0.1280
0.8700 0.2200 0.1280
0.0000 0.2567 0.1280
0.0580 0.2567 0.1280
0.1160 0.2567 0.1280
0.1740 0.2567 0.1280
0.2320 0.2567 0.1280
0.2900 0.2567 0.1280
0.3480 0.2567 0.1280
0.4060 0.2567 0.1280
0.4640 0.2567 0.1280
0.5220 0.2567 0.1280
0.5800 0.2567 0.1280
0.6380 0.2567 0.1280
0.6960 0.2567 0.1280
0.7540 0.2567 0.1280
0.8120 0.2567 0.1280
0.8700 0.2567 0.1280
0.0000 0.2933 0.1280
0.0580 0.2933 0.1280
0.1160 0.2933 0.1280
0.1740 0.2933 0.1280
