_reference/_cube_files/LUT3D_scoGAIN.cube
# Diego Inácio • 2017
TITLE "3D Simple Color Operator: Color Gain"
LUT_3D_SIZE 6
0.0000 0.0000 0.0000
0.1740 0.0000 0.0000
0.3480 0.0000 0.0000
0.5220 0.0000 0.0000
0.6960 0.0000 0.0000
0.8700 0.0000 0.0000
0.0000 0.1100 0.0000
0.1740 0.1100 0.0000
0.3480 0.1100 0.0000
0.5220 0.1100 0.0000
0.6960 0.1100 0.0000
0.8700 0.1100 0.0000
0.0000 0.2200 0.0000
0.1740 0.2200 0.0000
0.3480 0.2200 0.0000
0.5220 0.2200 0.0000
0.6960 0.2200 0.0000
0.8700 0.2200 0.0000
0.0000 0.3300 0.0000
0.1740 0.3300 0.0000
0.3480 0.3300 0.0000
0.5220 0.3300 0.0000
0.6960 0.3300 0.0000
0.8700 0.3300 0.0000
0.0000 0.4400 0.0000
0.1740 0.4400 0.0000
0.3480 0.4400 0.0000
0.5220 0.4400 0.0000
0.6960 0.4400 0.0000
0.8700 0.4400 0.0000
0.0000 0.5500 0.0000
0.1740 0.5500 0.0000
0.3480 0.5500 0.0000
0.5220 0.5500 0.0000
0.6960 0.5500 0.0000
0.8700 0.5500 0.0000
0.0000 0.0000 0.1280
0.1740 0.0000 0.1280
0.3480 0.0000 0.1280
0.5220 0.0000 0.1280
0.6960 0.0000 0.1280
0.8700 0.0000 0.1280
0.0000 0.1100 0.1280
0.1740 0.1100 0.1280
0.3480 0.1100 0.1280
0.5220 0.1100 0.1280
0.6960 0.1100 0.1280
0.8700 0.1100 0.1280
0.0000 0.2200 0.1280
0.1740 0.2200 0.1280
0.3480 0.2200 0.1280
0.5220 0.2200 0.1280
0.6960 0.2200 0.1280
0.8700 0.2200 0.1280
0.0000 0.3300 0.1280
0.1740 0.3300 0.1280
0.3480 0.3300 0.1280
0.5220 0.3300 0.1280
0.6960 0.3300 0.1280
0.8700 0.3300 0.1280
0.0000 0.4400 0.1280
0.1740 0.4400 0.1280
0.3480 0.4400 0.1280
0.5220 0.4400 0.1280
0.6960 0.4400 0.1280
0.8700 0.4400 0.1280
0.0000 0.5500 0.1280
0.1740 0.5500 0.1280
0.3480 0.5500 0.1280
0.5220 0.5500 0.1280
0.6960 0.5500 0.1280
0.8700 0.5500 0.1280
0.0000 0.0000 0.2560
0.1740 0.0000 0.2560
0.3480 0.0000 0.2560
0.5220 0.0000 0.2560
0.6960 0.0000 0.2560
0.8700 0.0000 0.2560
0.0000 0.1100 0.2560
0.1740 0.1100 0.2560
0.3480 0.1100 0.2560
0.5220 0.1100 0.2560
0.6960 0.1100 0.2560
0.8700 0.1100 0.2560
0.0000 0.2200 0.2560
0.1740 0.2200 0.2560
0.3480 0.2200 0.2560
0.5220 0.2200 0.2560
0.6960 0.2200 0.2560
0.8700 0.2200 0.2560
0.0000 0.3300 0.2560
0.1740 0.3300 0.2560
0.3480 0.3300 0.2560
0.5220 0.3300 0.2560
0.6960 0.3300 0.2560
0.8700 0.3300 0.2560
0.0000 0.4400 0.2560
0.1740 0.4400 0.2560
0.3480 0.4400 0.2560
0.5220 0.4400 0.2560
0.6960 0.4400 0.2560
0.8700 0.4400 0.2560
0.0000 0.5500 0.2560
0.1740 0.5500 0.2560
0.3480 0.5500 0.2560
0.5220 0.5500 0.2560
0.6960 0.5500 0.2560
0.8700 0.5500 0.2560
0.0000 0.0000 0.3840
0.1740 0.0000 0.3840
0.3480 0.0000 0.3840
0.5220 0.0000 0.3840
0.6960 0.0000 0.3840
0.8700 0.0000 0.3840
0.0000 0.1100 0.3840
0.1740 0.1100 0.3840
0.3480 0.1100 0.3840
0.5220 0.1100 0.3840
0.6960 0.1100 0.3840
0.8700 0.1100 0.3840
0.0000 0.2200 0.3840
0.1740 0.2200 0.3840
0.3480 0.2200 0.3840
0.5220 0.2200 0.3840
0.6960 0.2200 0.3840
0.8700 0.2200 0.3840
0.0000 0.3300 0.3840
0.1740 0.3300 0.3840
0.3480 0.3300 0.3840
0.5220 0.3300 0.3840
0.6960 0.3300 0.3840
0.8700 0.3300 0.3840
0.0000 0.4400 0.3840
0.1740 0.4400 0.3840
0.3480 0.4400 0.3840
0.5220 0.4400 0.3840
0.6960 0.4400 0.3840
0.8700 0.4400 0.3840
0.0000 0.5500 0.3840
0.1740 0.5500 0.3840
0.3480 0.5500 0.3840
0.5220 0.5500 0.3840
0.6960 0.5500 0.3840
0.8700 0.5500 0.3840
0.0000 0.0000 0.5120
0.1740 0.0000 0.5120
0.3480 0.0000 0.5120
0.5220 0.0000 0.5120
0.6960 0.0000 0.5120
0.8700 0.0000 0.5120
0.0000 0.1100 0.5120
0.1740 0.1100 0.5120
0.3480 0.1100 0.5120
0.5220 0.1100 0.5120
0.6960 0.1100 0.5120
0.8700 0.1100 0.5120
0.0000 0.2200 0.5120
0.1740 0.2200 0.5120
0.3480 0.2200 0.5120
0.5220 0.2200 0.5120
0.6960 0.2200 0.5120
0.8700 0.2200 0.5120
0.0000 0.3300 0.5120
0.1740 0.3300 0.5120
0.3480 0.3300 0.5120
0.5220 0.3300 0.5120
0.6960 0.3300 0.5120
0.8700 0.3300 0.5120
0.0000 0.4400 0.5120
0.1740 0.4400 0.5120
0.3480 0.4400 0.5120
0.5220 0.4400 0.5120
0.6960 0.4400 0.5120
0.8700 0.4400 0.5120
0.0000 0.5500 0.5120
0.1740 0.5500 0.5120
0.3480 0.5500 0.5120
0.5220 0.5500 0.5120
0.6960 0.5500 0.5120
0.8700 0.5500 0.5120
0.0000 0.0000 0.6400
0.1740 0.0000 0.6400
0.3480 0.0000 0.6400
0.5220 0.0000 0.6400
0.6960 0.0000 0.6400
0.8700 0.0000 0.6400
0.0000 0.1100 0.6400
0.1740 0.1100 0.6400
0.3480 0.1100 0.6400
0.5220 0.1100 0.6400
0.6960 0.1100 0.6400
0.8700 0.1100 0.6400
0.0000 0.2200 0.6400
0.1740 0.2200 0.6400
0.3480 0.2200 0.6400
0.5220 0.2200 0.6400
0.6960 0.2200 0.6400
0.8700 0.2200 0.6400
0.0000 0.3300 0.6400
0.1740 0.3300 0.6400
0.3480 0.3300 0.6400
0.5220 0.3300 0.6400
0.6960 0.3300 0.6400
0.8700 0.3300 0.6400
0.0000 0.4400 0.6400
0.1740 0.4400 0.6400
0.3480 0.4400 0.6400
0.5220 0.4400 0.6400
0.6960 0.4400 0.6400
0.8700 0.4400 0.6400
0.0000 0.5500 0.6400
0.1740 0.5500 0.6400
0.3480 0.5500 0.6400
0.5220 0.5500 0.6400
0.6960 0.5500 0.6400
0.8700 0.5500 0.6400
